!!!!SEGMENT: pl-cz--iii-270--003_gotschalk-filip--missa-pastoriria-in-c-credo.krn
!!!id: 18xx:123
!!!COM: Gotschalk, Filip
!!!COM-rism: pe30020320
!!!CDT: 1760-1809
!!!CNT:
!!!OTL: Missa Pastoriria in C - Credo
!!!PDT:
!!!SMS-siglum: PL-CZ
!!!SMS-shelfmark: III-270
!!!NIFC-rismID:
!!!URL-scan: http://repozytorium.nifc.pl/skany/pl-cz-nut--iii-270
!!!ONB-nifc:
**kern	**fb	**dynam	**kern	**text	**kern	**text	**kern	**text	**kern	**dynam	**kern	**dynam	**kern	**dynam	**kern	**dynam	**kern	**dynam	**kern	**dynam
*part10	*	*part10	*part9	*part9	*part8	*part8	*part7	*part7	*part6	*part6	*part5	*part5	*part4	*part4	*part3	*part3	*part2	*part2	*part1	*part1
*staff10	*	*	*staff9	*staff9	*staff8	*staff8	*staff7	*staff7	*staff6	*	*staff5	*	*staff4	*	*staff3	*	*staff2	*	*staff1	*
*I"Organo	*	*	*I"Basso	*	*I"Alto	*	*I"Canto	*	*I"Violino Secondo	*	*I"Violino Primo	*	*I"Cornu Secondo in C	*	*I"Cornu Primo in C	*	*I"Clarinetto Secondo	*	*I"Clarinetto Primo	*
*I'Org	*	*	*I'B	*	*I'A	*	*I'C	*	*I'Vln II	*	*I'Vln I	*	*I'Cor II	*	*I'Cor I	*	*I'Cl II	*	*I'Cl I	*
*clefF4	*	*	*clefF4	*	*clefC3	*	*clefC1	*	*clefG2	*	*clefG2	*	*clefG2	*	*clefG2	*	*clefG2	*	*clefG2	*
*k[]	*	*	*k[]	*	*k[]	*	*k[]	*	*k[]	*	*k[]	*	*k[]	*	*k[]	*	*k[]	*	*k[]	*
*M3/4	*	*	*M3/4	*	*M3/4	*	*M3/4	*	*M3/4	*	*M3/4	*	*M3/4	*	*M3/4	*	*M3/4	*	*M3/4	*
=1	=1	=1	=1	=1	=1	=1	=1	=1	=1	=1	=1	=1	=1	=1	=1	=1	=1	=1	=1	=1
!LO:TX:b:t=Tutti	!	!	!LO:TX:a:B:t=Allegro	!	!LO:TX:a:B:t=[Allegro]	!	!LO:TX:a:B:t=Allegro	!	!	!	!LO:TX:a:B:t=Allegro	!	!	!	!LO:TX:a:B:t=Allegro	!	!LO:TX:a:B:t=Allegro	!	!LO:TX:b:B:t=Allegro	!
8cL	.	.	4c	Pa-	4cc	Pa-	8ccL	Pa-	8cL	.	8ccL\	f	8ccL\	.	8ccL\	.	8ccL\	.	8cccL	.
8G	.	.	.	.	.	.	8g	.	8G	.	8gJ/	.	8gJ/	.	8gJ/	.	8gJ/	.	8gg	.
8c	.	.	8c	-trem	8cc	-trem	8cc	.	8c	.	8ccL\	.	8ccL\	.	8ccL\	.	8ccL\	.	8ccc	.
8G	.	.	8G	om-	8g	om-	8gJ	.	8G	.	8gJ/	.	8gJ/	.	8gJ/	.	8gJ/	.	8gg	.
8c	.	.	8c	-ni-	8cc	-ni-	8ccL	-trem	8c	.	8ccL\	.	8ccL\	.	8ccL\	.	8ccL\	.	8ccc	.
8GJ	.	.	8G	-po-	8g	-po-	8gJ	.	8GJ	.	8gJ/	.	8gJ/	.	8gJ/	.	8gJ/	.	8ggJ	.
=2	=2	=2	=2	=2	=2	=2	=2	=2	=2	=2	=2	=2	=2	=2	=2	=2	=2	=2	=2	=2
4c	.	.	4c	-ten-	4cc	-ten-	4cc	Pa-	4c	.	4cc	.	4cc	.	4cc	.	4cc	.	4ccc	.
4r	.	.	4c	-tem	4cc	-tem	4cc	-trem	16cLL	.	16ccLL	.	4r	.	4r	.	4r	.	4r	.
.	.	.	.	.	.	.	.	.	16d	.	16dd	.	.	.	.	.	.	.	.	.
.	.	.	.	.	.	.	.	.	16e	.	16ee	.	.	.	.	.	.	.	.	.
.	.	.	.	.	.	.	.	.	16fJJ	.	16ffJJ	.	.	.	.	.	.	.	.	.
4r	.	.	4r	.	4r	.	4r	.	16gLL	.	16ggLL	.	4r	.	4r	.	4r	.	4r	.
.	.	.	.	.	.	.	.	.	16f	.	16ff	.	.	.	.	.	.	.	.	.
.	.	.	.	.	.	.	.	.	16e	.	16ee	.	.	.	.	.	.	.	.	.
.	.	.	.	.	.	.	.	.	16dJJ	.	16ddJJ	.	.	.	.	.	.	.	.	.
=3	=3	=3	=3	=3	=3	=3	=3	=3	=3	=3	=3	=3	=3	=3	=3	=3	=3	=3	=3	=3
8cL	.	.	4c	Pa-	4cc	Pa-	8ccL	om-	8cL	.	8ccL\	.	8ccL\	.	8ccL\	.	8ccL\	.	8cccL	.
8GJ	.	.	.	.	.	.	8gJ	.	8G	.	8gJ/	.	8gJ/	.	8gJ/	.	8gJ/	.	8gg	.
8cL	.	.	8c	-trem	8cc	-trem	8ccL	-ni-	8c	.	8ccL\	.	8ccL\	.	8ccL\	.	8ccL\	.	8ccc	.
8GJ	.	.	8G	om-	8g	om-	8gJ	.	8G	.	8gJ/	.	8gJ/	.	8gJ/	.	8gJ/	.	8gg	.
8cL	.	.	8c	-ni-	8cc	-ni-	8ccL	-po-	8c	.	8ccL\	.	8ccL\	.	8ccL\	.	8ccL\	.	8ccc	.
8GJ	.	.	8G	-po-	8g	-po-	8gJ	.	8GJ	.	8gJ/	.	8gJ/	.	8gJ/	.	8gJ/	.	8ggJ	.
!	!	!	!LO:LB:g=original	!	!	!	!	!	!	!	!	!	!	!	!	!	!	!	!	!
=4	=4	=4	=4	=4	=4	=4	=4	=4	=4	=4	=4	=4	=4	=4	=4	=4	=4	=4	=4	=4
4c	.	.	4c	-ten-	4cc	-ten-	4cc	-ten-	4c	.	4cc	.	4c	.	4cc	.	4cc	.	4ccc	.
4r	.	.	4c	-tem	4cc	-tem	4cc	-tem	16cLL	.	16ccLL	.	4r	.	4r	.	4r	.	4r	.
.	.	.	.	.	.	.	.	.	16d	.	16dd	.	.	.	.	.	.	.	.	.
.	.	.	.	.	.	.	.	.	16e	.	16ee	.	.	.	.	.	.	.	.	.
.	.	.	.	.	.	.	.	.	16fJJ	.	16ffJJ	.	.	.	.	.	.	.	.	.
4r	.	.	4r	.	4r	.	4r	.	16gLL	.	16ggLL	.	4r	.	4r	.	4r	.	4r	.
.	.	.	.	.	.	.	.	.	16f	.	16ff	.	.	.	.	.	.	.	.	.
.	.	.	.	.	.	.	.	.	16e	.	16ee	.	.	.	.	.	.	.	.	.
.	.	.	.	.	.	.	.	.	16dJJ	.	16ddJJ	.	.	.	.	.	.	.	.	.
!	!	!	!	!	!LO:LB:g=original	!	!	!	!LO:LB:g=original	!	!LO:LB:g=original	!	!	!	!	!	!LO:LB:g=original	!	!	!
=5	=5	=5	=5	=5	=5	=5	=5	=5	=5	=5	=5	=5	=5	=5	=5	=5	=5	=5	=5	=5
8C'L	.	.	4C	fac-	4cc	fac-	4cc	fac-	8cL	.	8ccL	.	4c	.	4cc	.	2.r	.	2.r	.
16D'L	.	.	.	.	.	.	.	.	16dL	.	16ddL	.	.	.	.	.	.	.	.	.
16E'JJ	.	.	.	.	.	.	.	.	16eJJ	.	16eeJJ	.	.	.	.	.	.	.	.	.
8F'L	.	.	4c	-to-	4cc	-to-	4cc	-to-	8fL	.	8ffL	.	4r	.	4r	.	.	.	.	.
8G'	.	.	.	.	.	.	.	.	8gJ	.	8gg	.	.	.	.	.	.	.	.	.
8A'	.	.	4c	-rem	4cc	-rem	4cc	-rem	8aL	.	8aa	.	4r	.	4r	.	.	.	.	.
8B'J	.	.	.	.	.	.	.	.	8bJ	.	8bbJ	.	.	.	.	.	.	.	.	.
!LO:LB:g=original	!	!	!	!	!	!	!LO:LB:g=original	!	!	!	!	!	!	!	!	!	!	!	!	!
=6	=6	=6	=6	=6	=6	=6	=6	=6	=6	=6	=6	=6	=6	=6	=6	=6	=6	=6	=6	=6
4c'	.	.	4c	Coe-	4cc	Coe-	4cc	Coe-	4cc	.	4ccc	.	4c	.	4cc	.	4c	.	4cc	.
4G'	.	.	4G	-li	4g	-li	4gg	-li	4g\	.	4gg	.	4g	.	4g	.	4g	.	4gg	.
4E'	.	.	4E	et	4e	et	4ee	et	4e	.	4ee	.	4e	.	4e	.	4e	.	4ee	.
!	!	!	!	!	!	!	!	!	!	!	!	!	!	!	!	!	!	!	!LO:LB:g=original	!
=7	=7	=7	=7	=7	=7	=7	=7	=7	=7	=7	=7	=7	=7	=7	=7	=7	=7	=7	=7	=7
!LO:TX:a:t=Solo	!	!	!	!	!	!	!	!	!	!	!	!	!	!	!	!	!	!	!	!
*tremolo	*	*	*	*	*	*	*	*	*	*	*	*	*	*	*	*	*	*	*	*
8CL	.	p	4C	ter-	4c	ter-	4cc	ter-	8GL 8e	.	4cc	.	4c	.	4c	.	4c	.	4cc	.
8C	.	.	.	.	.	.	.	.	8GJ 8e	.	.	.	.	.	.	.	.	.	.	.
8C	.	.	4C	-ra	4c	-ra	4cc	-ra	8eL/	p	8r	.	4r	.	4r	.	4r	.	4r	.
8C	.	.	.	.	.	.	.	.	16ccL\	.	16eeLL	p	.	.	.	.	.	.	.	.
.	.	.	.	.	.	.	.	.	16ddJJ\	.	16ffJJ	.	.	.	.	.	.	.	.	.
8C	.	.	8c	vi-	8e	vi-	8gg	vi-	8eeL	.	8ggL	.	4r	.	4r	.	4r	.	4r	.
8CJ	.	.	8c	-ſi-	8ee	-ſi-	8gg	-ſi-	8eeJ	.	8ggJ	.	.	.	.	.	.	.	.	.
!	!	!	!	!	!	!	!	!	!	!	!	!	!LO:LB:g=original	!	!LO:LB:g=original	!	!	!	!	!
=8	=8	=8	=8	=8	=8	=8	=8	=8	=8	=8	=8	=8	=8	=8	=8	=8	=8	=8	=8	=8
*2\right	*	*	*	*	*	*	*	*	*	*	*	*	*	*	*	*	*	*	*	*
8GL	.	fp	8G	-bi-	8ee	-bi-	8gg	-bi-	8eeL	f	8ggL	f	2.r	.	2.r	.	8bL	.	8ggL	.
8G	.	.	8G	-li-	8dd	-li-	8ff	-li-	8ddJ	.	8ffJ	.	.	.	.	.	8bJ	.	8ffJ	.
!	!	!	!LO:LB:g=original	!	!	!	!	!	!	!	!	!	!	!	!	!	!	!	!	!
8G	.	.	8G	-um	8g	-um	8dd	-um	8ccL	p	8ddL	p	.	.	.	.	4b	.	4dd	.
8G	.	.	16G	et	16b	et	16dd	et	16bL	.	16ddL	.	.	.	.	.	.	.	.	.
.	.	.	16G	in	16cc	in	16ee	in	16ccJJ	.	16eeJJ	.	.	.	.	.	.	.	.	.
8G	.	.	8G	vi-	8dd	vi-	8ff	vi-	8ddL	.	8ffL	.	.	.	.	.	4r	.	4r	.
8GJ	.	.	8G	-ſi-	8dd	-ſi-	8ff	-si-	8ddJ	.	8ffJ	.	.	.	.	.	.	.	.	.
=9	=9	=9	=9	=9	=9	=9	=9	=9	=9	=9	=9	=9	=9	=9	=9	=9	=9	=9	=9	=9
8CL	.	fp	8c	-bi-	8cc	-bi-	8ff	-bi-	8aL	f	8ffL	f	2.r	.	2.r	.	8gL	.	8ffL	.
8C	.	.	8C	-li-	8cc	-li-	8ee	-li-	8gJ	.	8eeJ	.	.	.	.	.	8gJ	.	8eeJ	.
8C	.	.	4C	-um	4cc	-um	4cc	-um	8eL/	p	8ccL	p	.	.	.	.	4g	.	4cc	.
8C	.	.	.	.	.	.	.	.	16ccL\	.	16eeL	.	.	.	.	.	.	.	.	.
.	.	.	.	.	.	.	.	.	16ddJJ\	.	16ffJJ	.	.	.	.	.	.	.	.	.
!	!	!	!	!	!LO:LB:g=original	!	!	!	!	!	!	!	!	!	!	!	!	!	!	!
8C	.	.	8C	vi-	8e	vi-	8gg	vi-	8eeL	.	8ggL	.	.	.	.	.	4r	.	4r	.
8CJ	.	.	8C	-ſi-	16eLL	-si-	8gg	-si-	8eeJ	.	8ggJ	.	.	.	.	.	.	.	.	.
.	.	.	.	.	16ccJJ	.	.	.	.	.	.	.	.	.	.	.	.	.	.	.
!	!	!	!	!	!	!	!	!	!LO:LB:g=original	!	!	!	!	!	!	!	!	!	!	!
=10	=10	=10	=10	=10	=10	=10	=10	=10	=10	=10	=10	=10	=10	=10	=10	=10	=10	=10	=10	=10
8GL	.	fp	8G	-bi-	8ee	-bi-	8gg	-bi-	8eeL	f	8ggL	f	2.r	.	2.r	.	4r	.	4r	.
8G	.	.	8G	-li-	8dd	-li-	8ff	-li-	8ddJ	.	8ffJ	.	.	.	.	.	.	.	.	.
8G	.	.	8G	-um	8g	-um	8dd	-um	8bL	p	8ddL	p	.	.	.	.	4gg	p	4ddd	p
8G	.	.	16G	et	16b	et	16dd	et	16bL	.	16ddL	.	.	.	.	.	.	.	.	.
.	.	.	16G	in	16cc	in	16ee	in	16ccJJ	.	16eeJJ	.	.	.	.	.	.	.	.	.
!	!	!	!	!	!	!	!LO:LB:g=original	!	!	!	!	!	!	!	!	!	!	!	!	!
8G	.	.	8G	vi-	8dd	vi-	8ff	vi-	8ddL	.	8ffL	.	.	.	.	.	4r	.	4r	.
8GJ	.	.	8G	-ſi-	8dd	-ſi-	8ff	-si-	8ddJ	.	8ffJ	.	.	.	.	.	.	.	.	.
!	!	!	!LO:LB:g=original	!	!	!	!	!	!	!	!LO:LB:g=original	!	!	!	!	!	!	!	!	!
=11	=11	=11	=11	=11	=11	=11	=11	=11	=11	=11	=11	=11	=11	=11	=11	=11	=11	=11	=11	=11
8cL	.	fp	8c	-bi-	8b	-bi-	8ff	-bi-	8aL	f	8ffL	f	2.r	.	2.r	.	4r	.	4r	.
8c	.	.	8c	-li-	8cc	-li-	8ee	-li-	8gJ	.	8eeJ	.	.	.	.	.	.	.	.	.
*	*	*	*	*	*	*	*	*	*	*	*tremolo	*	*	*	*	*	*	*	*	*
8c	.	.	4c	-um	4cc	-um	4cc	-um	8eL	p	8ccL	p	.	.	.	.	4ee	.	4ccc	.
8c	.	.	.	.	.	.	.	.	16eL	.	8ccJ	.	.	.	.	.	.	.	.	.
.	.	.	.	.	.	.	.	.	16dJJ	.	.	.	.	.	.	.	.	.	.	.
8c	.	.	4r	.	4r	.	4r	.	8eL	.	8ccL	.	.	.	.	.	4r	.	4r	.
8cJ	.	.	.	.	.	.	.	.	8eJ	.	8ccJ	.	.	.	.	.	.	.	.	.
*	*	*	*	*	*	*	*	*	*	*	*Xtremolo	*	*	*	*	*	*	*	*	*
=12	=12	=12	=12	=12	=12	=12	=12	=12	=12	=12	=12	=12	=12	=12	=12	=12	=12	=12	=12	=12
*	*	*	*2\right	*	*	*	*	*	*2\right	*	*2\right	*	*	*	*	*	*	*	*	*
8cL	.	p	4c	Do-	4.a	Do-	4.ff	Do-	2a	.	2ff	.	2.r	.	2.r	.	2.r	.	2.r	.
8c	.	.	.	.	.	.	.	.	.	.	.	.	.	.	.	.	.	.	.	.
8c	.	.	4c	-mi-	.	.	.	.	.	.	.	.	.	.	.	.	.	.	.	.
8c	.	.	.	.	8a	-mi-	8ff	-mi-	.	.	.	.	.	.	.	.	.	.	.	.
8c	.	.	4c	-num	4g	-num	4ee	-num	4g	.	4ee	.	.	.	.	.	.	.	.	.
8cJ	.	.	.	.	.	.	.	.	.	.	.	.	.	.	.	.	.	.	.	.
=13	=13	=13	=13	=13	=13	=13	=13	=13	=13	=13	=13	=13	=13	=13	=13	=13	=13	=13	=13	=13
8GL	.	???	2G	et	4.f	et	(>4.dd	et	(<8gL	.	8eeL	.	2.r	.	2.r	.	2.r	.	2.r	.
8G	.	.	.	.	.	.	.	.	8fJ)	.	8dd	.	.	.	.	.	.	.	.	.
8G	.	.	.	.	.	.	.	.	(<8fL	.	8dd	.	.	.	.	.	.	.	.	.
8G	.	.	.	.	8e	.	8cc)	.	8e	.	8cc	.	.	.	.	.	.	.	.	.
8G	.	.	4G	ex	8fL	ex	8ddL	ex	8f	.	8dd	.	.	.	.	.	.	.	.	.
8GJ	.	.	.	.	8gJ	.	8eeJ	.	8gJ)	.	8eeJ	.	.	.	.	.	.	.	.	.
!	!	!	!	!	!LO:LB:g=original	!	!	!	!	!	!	!	!	!	!	!	!	!	!	!
=14	=14	=14	=14	=14	=14	=14	=14	=14	=14	=14	=14	=14	=14	=14	=14	=14	=14	=14	=14	=14
8CL/	.	.	4c	Pa-	4e	Pa-	4cc	Pa-	8eL	.	4cc	.	2.r	.	2.r	.	2.r	.	2.r	.
16cL\	.	.	.	.	.	.	.	.	16eL	.	.	.	.	.	.	.	.	.	.	.
16BJJ\	.	.	.	.	.	.	.	.	16dJJ	.	.	.	.	.	.	.	.	.	.	.
*	*	*	*	*	*	*	*	*	*tremolo	*	*	*	*	*	*	*	*	*	*	*
8c'L	.	.	4c	-tre	4e	-tre	4cc	-tre	8eL	.	8r	.	.	.	.	.	.	.	.	.
8c'	.	.	.	.	.	.	.	.	8e	.	16ccLL	.	.	.	.	.	.	.	.	.
.	.	.	.	.	.	.	.	.	.	.	16bJJ	.	.	.	.	.	.	.	.	.
8c'	.	.	4r	.	4r	.	4r	.	8e	.	8ccL	.	.	.	.	.	.	.	.	.
8c'J	.	.	.	.	.	.	.	.	8eJ	.	8ccJ	.	.	.	.	.	.	.	.	.
*	*	*	*	*	*2\right	*	*2\right	*	*Xtremolo	*	*	*	*	*	*	*	*	*	*	*
=15	=15	=15	=15	=15	=15	=15	=15	=15	=15	=15	=15	=15	=15	=15	=15	=15	=15	=15	=15	=15
8cL	.	.	4F	na-	2f	na-	2aa	na-	2ff	.	2aa	.	2.r	.	2.r	.	2.r	.	2.r	.
8c	.	.	.	.	.	.	.	.	.	.	.	.	.	.	.	.	.	.	.	.
8c	.	.	4f	.	.	.	.	.	.	.	.	.	.	.	.	.	.	.	.	.
8c	.	.	.	.	.	.	.	.	.	.	.	.	.	.	.	.	.	.	.	.
8c	.	.	4e	-tum	4e	-tum	4gg	-tum	4ee	.	4gg	.	.	.	.	.	.	.	.	.
8cJ	.	.	.	.	.	.	.	.	.	.	.	.	.	.	.	.	.	.	.	.
!	!	!	!LO:LB:g=original	!	!	!	!LO:LB:g=original	!	!LO:LB:g=original	!	!	!	!	!	!	!	!	!	!	!
=16	=16	=16	=16	=16	=16	=16	=16	=16	=16	=16	=16	=16	=16	=16	=16	=16	=16	=16	=16	=16
8GL	7	.	8G	an-	8e	an-	8gg	an-	8eeL	.	(>8ggL	.	2.r	.	2.r	.	2.r	.	2.r	.
8G	.	.	8G	-te	8d	-te	8ff	-te	8dd	.	8ff)	.	.	.	.	.	.	.	.	.
8G	.	.	4G	om-	8ddL	om-	8ffL	om-	8dd	.	(>8ff	.	.	.	.	.	.	.	.	.
8G	.	.	.	.	8ccJ	.	8eeJ	.	8cc	.	8ee)	.	.	.	.	.	.	.	.	.
8G	.	.	8G	-ni-	8dd	-ni-	8ff	-ni-	8dd	.	(>8ff	.	.	.	.	.	.	.	.	.
8GJ	.	.	8G	-a	8ee	-a	8gg	-a	8eeJ	.	8ggJ)	.	.	.	.	.	.	.	.	.
!LO:LB:g=original	!	!	!	!	!	!	!	!	!	!	!	!	!	!	!	!	!	!	!	!
=17	=17	=17	=17	=17	=17	=17	=17	=17	=17	=17	=17	=17	=17	=17	=17	=17	=17	=17	=17	=17
8cL	.	.	8c	sae-	8g	sae-	8ee	sae-	4cc	.	4ee	.	2.r	.	2.r	.	2.r	.	2.r	.
8c	.	.	8c	-cu-	8g	-cu-	8ee	-cu-	.	.	.	.	.	.	.	.	.	.	.	.
8c	.	.	4c	-la	4g	-la	4ee	-la	8eL	.	8r	.	.	.	.	.	.	.	.	.
8c	.	.	.	.	.	.	.	.	16eL	.	16ccLL	.	.	.	.	.	.	.	.	.
.	.	.	.	.	.	.	.	.	16dJJ	.	16bJJ	.	.	.	.	.	.	.	.	.
8c	.	.	4r	.	4r	.	4r	.	8eL	.	8ccL	.	.	.	.	.	.	.	.	.
8cJ	.	.	.	.	.	.	.	.	8eJ	.	8ccJ	.	.	.	.	.	.	.	.	.
!	!	!	!	!	!	!	!	!	!	!	!LO:LB:g=original	!	!	!	!	!	!LO:PB:g=original	!	!	!
=18	=18	=18	=18	=18	=18	=18	=18	=18	=18	=18	=18	=18	=18	=18	=18	=18	=18	=18	=18	=18
*	*	*	*	*	*	*	*	*	*tremolo	*	*tremolo	*	*	*	*	*	*2\right	*	*2\right	*
!LO:TX:a:t=Tutti	!	!	!	!	!	!	!	!	!	!	!	!	!	!	!	!	!	!	!	!
8cL	.	f	2C	De-	2g	De-	2cc	De-	16eeLL	f	16cccLL	f	2.r	.	2.r	.	2ee	f	2ccc	f
.	.	.	.	.	.	.	.	.	16ee	.	16ccc	.	.	.	.	.	.	.	.	.
8c	.	.	.	.	.	.	.	.	16ee	.	16ccc	.	.	.	.	.	.	.	.	.
.	.	.	.	.	.	.	.	.	16ee	.	16ccc	.	.	.	.	.	.	.	.	.
8c	.	.	.	.	.	.	.	.	16ee	.	16ccc	.	.	.	.	.	.	.	.	.
.	.	.	.	.	.	.	.	.	16ee	.	16ccc	.	.	.	.	.	.	.	.	.
8c	.	.	.	.	.	.	.	.	16ee	.	16ccc	.	.	.	.	.	.	.	.	.
.	.	.	.	.	.	.	.	.	16eeJJ	.	16cccJJ	.	.	.	.	.	.	.	.	.
8c	.	.	4C	-um	4g	-um	4b	-um	16ggLL	.	16bbLL	.	.	.	.	.	4gg	.	4bb	.
.	.	.	.	.	.	.	.	.	16gg	.	16bb	.	.	.	.	.	.	.	.	.
8cJ	.	.	.	.	.	.	.	.	16gg	.	16bb	.	.	.	.	.	.	.	.	.
.	.	.	.	.	.	.	.	.	16ggJJ	.	16bbJJ	.	.	.	.	.	.	.	.	.
!	!	!	!	!	!LO:LB:g=original	!	!	!	!	!	!	!	!	!	!	!	!	!	!	!
=19	=19	=19	=19	=19	=19	=19	=19	=19	=19	=19	=19	=19	=19	=19	=19	=19	=19	=19	=19	=19
*Xtremolo	*	*	*	*	*	*	*	*	*	*	*	*	*	*	*	*	*	*	*	*
8cL	.	.	2c	de	4b	de	4ee	de	16eeLL	.	16bbLL	.	2.r	.	2.r	.	2ee	.	4bb	.
.	.	.	.	.	.	.	.	.	16ee	.	16bb	.	.	.	.	.	.	.	.	.
8cJ	.	.	.	.	.	.	.	.	16ee	.	16bb	.	.	.	.	.	.	.	.	.
.	.	.	.	.	.	.	.	.	16ee	.	16bbJJ	.	.	.	.	.	.	.	.	.
8cL	6	.	.	.	(>4a	De-	2ee	De-	16ee	.	16aaLL	.	.	.	.	.	.	.	4aa	.
.	.	.	.	.	.	.	.	.	16ee	.	16aa	.	.	.	.	.	.	.	.	.
8cJ	.	.	.	.	.	.	.	.	16ee	.	16aa	.	.	.	.	.	.	.	.	.
.	.	.	.	.	.	.	.	.	16ee	.	16aaJJ	.	.	.	.	.	.	.	.	.
8c#XL	6 5	.	4c#X	De-	4g)	.	.	.	16ee	.	16ggLL	.	.	.	.	.	4ee	.	4gg	.
.	.	.	.	.	.	.	.	.	16ee	.	16gg	.	.	.	.	.	.	.	.	.
8c#J	.	.	.	.	.	.	.	.	16ee	.	16gg	.	.	.	.	.	.	.	.	.
.	.	.	.	.	.	.	.	.	16eeJJ	.	16ggJJ	.	.	.	.	.	.	.	.	.
*	*	*	*	*	*	*	*	*	*	*	*Xtremolo	*	*	*	*	*	*	*	*	*
=20	=20	=20	=20	=20	=20	=20	=20	=20	=20	=20	=20	=20	=20	=20	=20	=20	=20	=20	=20	=20
8DL	#	.	4d	-o	4a	-o	4ff#X	-o	16dLL 16a	.	4ff#X	.	2.r	.	2.r	.	4a	.	4ff#X	.
.	.	.	.	.	.	.	.	.	16d 16a	.	.	.	.	.	.	.	.	.	.	.
8dJ	.	.	.	.	.	.	.	.	16d 16a	.	.	.	.	.	.	.	.	.	.	.
.	.	.	.	.	.	.	.	.	16d 16a	.	.	.	.	.	.	.	.	.	.	.
*tremolo	*	*	*	*	*	*	*	*	*	*	*	*	*	*	*	*	*	*	*	*
8DL/	.	.	4r	.	4r	.	4r	.	16d 16a	.	8r	.	.	.	.	.	4r	.	4r	.
.	.	.	.	.	.	.	.	.	16d 16a	.	.	.	.	.	.	.	.	.	.	.
8D	.	.	.	.	.	.	.	.	16d 16a	.	16ddLL	.	.	.	.	.	.	.	.	.
.	.	.	.	.	.	.	.	.	16d 16a	.	16ccJJ	.	.	.	.	.	.	.	.	.
8D	.	.	4r	.	4r	.	4r	.	16d 16a	.	8ddL	.	.	.	.	.	4r	.	4r	.
.	.	.	.	.	.	.	.	.	16d 16a	.	.	.	.	.	.	.	.	.	.	.
8DJ	.	.	.	.	.	.	.	.	16d 16a	.	8ddJ	.	.	.	.	.	.	.	.	.
.	.	.	.	.	.	.	.	.	16dJJ 16a	.	.	.	.	.	.	.	.	.	.	.
*Xtremolo	*	*	*	*	*	*	*	*	*	*	*	*	*	*	*	*	*	*	*	*
!	!	!	!LO:LB:g=original	!	!	!	!	!	!	!	!	!	!	!	!	!	!	!	!LO:LB:g=original	!
=21	=21	=21	=21	=21	=21	=21	=21	=21	=21	=21	=21	=21	=21	=21	=21	=21	=21	=21	=21	=21
8F#XL	6 5	.	4D	Lu-	4f#X	Lu-	4dd	Lu-	16f#XLL 16dd	.	4ccc	.	2.r	.	2.r	.	4dd	.	4ccc	.
.	.	.	.	.	.	.	.	.	16f# 16dd	.	.	.	.	.	.	.	.	.	.	.
8d	.	.	.	.	.	.	.	.	16f# 16dd	.	.	.	.	.	.	.	.	.	.	.
.	.	.	.	.	.	.	.	.	16f# 16dd	.	.	.	.	.	.	.	.	.	.	.
8F#	.	.	4F#X	-men	4a	-men	4dd	-men	16f# 16dd	.	8r	.	.	.	.	.	4r	.	4r	.
.	.	.	.	.	.	.	.	.	16f# 16dd	.	.	.	.	.	.	.	.	.	.	.
8d	.	.	.	.	.	.	.	.	16f# 16dd	.	16aaLL	.	.	.	.	.	.	.	.	.
.	.	.	.	.	.	.	.	.	16f# 16dd	.	16ggJJ	.	.	.	.	.	.	.	.	.
8F#	.	.	4D	de	4f#	de	4dd	de	16f# 16dd	.	16aaLL	.	.	.	.	.	4dd	.	8aaL	.
.	.	.	.	.	.	.	.	.	16f# 16dd	.	16gg	.	.	.	.	.	.	.	.	.
8dJ	.	.	.	.	.	.	.	.	16f# 16dd	.	16aa	.	.	.	.	.	.	.	8cccJ	.
.	.	.	.	.	.	.	.	.	16f#JJ 16dd	.	16cccJJ	.	.	.	.	.	.	.	.	.
!	!	!	!	!	!	!	!LO:LB:g=original	!	!	!	!	!	!	!	!	!	!	!	!	!
=22	=22	=22	=22	=22	=22	=22	=22	=22	=22	=22	=22	=22	=22	=22	=22	=22	=22	=22	=22	=22
*	*	*	*	*	*	*	*	*	*	*	*	*	*2\right	*	*2\right	*	*	*	*	*
8GL	.	.	4G	lu-	4b	lu-	4dd	lu-	16dLL 16dd	.	4bb	.	2g	.	2dd	.	4dd	.	4bb	.
.	.	.	.	.	.	.	.	.	16d 16dd	.	.	.	.	.	.	.	.	.	.	.
8d	.	.	.	.	.	.	.	.	16d 16dd	.	.	.	.	.	.	.	.	.	.	.
.	.	.	.	.	.	.	.	.	16d 16dd	.	.	.	.	.	.	.	.	.	.	.
8B	.	.	4G	-mi-	4b	-mi-	4dd	-mi-	16d 16dd	.	8r	.	.	.	.	.	4r	.	4r	.
.	.	.	.	.	.	.	.	.	16d 16dd	.	.	.	.	.	.	.	.	.	.	.
8d	.	.	.	.	.	.	.	.	16d 16dd	.	16ggLL	.	.	.	.	.	.	.	.	.
.	.	.	.	.	.	.	.	.	16dJJ 16dd	.	16ff#XJJ	.	.	.	.	.	.	.	.	.
8G	.	.	4G	-ne	4b	-ne	4dd	-ne	16dLL 16b	.	16ggLL	.	4g	.	4dd	.	8bL	.	8ggL	.
.	.	.	.	.	.	.	.	.	16d 16b	.	16ff#	.	.	.	.	.	.	.	.	.
8dJ	.	.	.	.	.	.	.	.	16d 16b	.	16gg	.	.	.	.	.	8ddJ	.	8bbJ	.
.	.	.	.	.	.	.	.	.	16dJJ 16b	.	16bbJJ	.	.	.	.	.	.	.	.	.
!LO:LB:g=original	!	!	!	!	!	!	!	!	!	!	!	!	!	!	!	!	!	!	!	!
=23	=23	=23	=23	=23	=23	=23	=23	=23	=23	=23	=23	=23	=23	=23	=23	=23	=23	=23	=23	=23
8cL	6	.	2c	De-	2a	De-	2ee	De-	16dLL 16cc	.	8bbL	.	2.r	.	2.r	.	2cc	.	2aa	.
.	.	.	.	.	.	.	.	.	16d 16cc	.	.	.	.	.	.	.	.	.	.	.
8d	.	.	.	.	.	.	.	.	16d 16cc	.	8aaJ	.	.	.	.	.	.	.	.	.
.	.	.	.	.	.	.	.	.	16d 16cc	.	.	.	.	.	.	.	.	.	.	.
8c	.	.	.	.	.	.	.	.	16d 16cc	.	8aaL	.	.	.	.	.	.	.	.	.
.	.	.	.	.	.	.	.	.	16d 16cc	.	.	.	.	.	.	.	.	.	.	.
8d	.	.	.	.	.	.	.	.	16d 16cc	.	8ccc	.	.	.	.	.	.	.	.	.
.	.	.	.	.	.	.	.	.	16d 16cc	.	.	.	.	.	.	.	.	.	.	.
8e	#	.	4c	-um	4f#X	-um	4cc	-um	16d 16cc	.	8ff#X	.	.	.	.	.	4a	.	4ff#X	.
.	.	.	.	.	.	.	.	.	16d 16cc	.	.	.	.	.	.	.	.	.	.	.
8dJ	.	.	.	.	.	.	.	.	16d 16cc	.	8aaJ	.	.	.	.	.	.	.	.	.
.	.	.	.	.	.	.	.	.	16dJJ 16cc	.	.	.	.	.	.	.	.	.	.	.
!	!	!	!	!	!	!	!	!	!	!	!LO:LB:g=original	!	!	!	!	!	!	!	!	!
=24	=24	=24	=24	=24	=24	=24	=24	=24	=24	=24	=24	=24	=24	=24	=24	=24	=24	=24	=24	=24
8BL	.	.	4G	ve-	4g	ve-	4b	ve-	16dLL 16b	.	4gg	.	2g	.	2dd	.	4b	.	4gg	.
.	.	.	.	.	.	.	.	.	16d 16b	.	.	.	.	.	.	.	.	.	.	.
8d	.	.	.	.	.	.	.	.	16d 16b	.	.	.	.	.	.	.	.	.	.	.
.	.	.	.	.	.	.	.	.	16d 16b	.	.	.	.	.	.	.	.	.	.	.
8B	.	.	4G	-rum	4g	-rum	4b	-rum	16d 16b	.	8r	.	.	.	.	.	4r	.	4r	.
.	.	.	.	.	.	.	.	.	16d 16b	.	.	.	.	.	.	.	.	.	.	.
8d	.	.	.	.	.	.	.	.	16d 16b	.	16ggLL	.	.	.	.	.	.	.	.	.
.	.	.	.	.	.	.	.	.	16d 16b	.	16aaJJ	.	.	.	.	.	.	.	.	.
8G	.	.	4r	.	4r	.	4r	.	16d 16b	.	8bbL	.	4g	.	4dd	.	4r	.	4r	.
.	.	.	.	.	.	.	.	.	16d 16b	.	.	.	.	.	.	.	.	.	.	.
8dJ	.	.	.	.	.	.	.	.	16d 16b	.	8ggJ	.	.	.	.	.	.	.	.	.
.	.	.	.	.	.	.	.	.	16dJJ 16b	.	.	.	.	.	.	.	.	.	.	.
!	!	!	!	!	!LO:LB:g=original	!	!	!	!	!	!	!	!	!	!	!	!	!	!	!
=25	=25	=25	=25	=25	=25	=25	=25	=25	=25	=25	=25	=25	=25	=25	=25	=25	=25	=25	=25	=25
*tremolo	*	*	*	*	*	*	*	*	*	*	*	*	*	*	*	*	*	*	*	*
8F#XL	6 5	.	2F#X	de	2cc	de	4dd	de	16dLL 16a	.	4ccc	.	2.r	.	2.r	.	4dd	.	4ccc	.
.	.	.	.	.	.	.	.	.	16d 16a	.	.	.	.	.	.	.	.	.	.	.
8F#	.	.	.	.	.	.	.	.	16d 16a	.	.	.	.	.	.	.	.	.	.	.
.	.	.	.	.	.	.	.	.	16d 16a	.	.	.	.	.	.	.	.	.	.	.
8F#	.	.	.	.	.	.	4dd	De-	16d 16a	.	8r	.	.	.	.	.	4r	.	4r	.
.	.	.	.	.	.	.	.	.	16d 16a	.	.	.	.	.	.	.	.	.	.	.
8F#	.	.	.	.	.	.	.	.	16d 16a	.	16aaLL	.	.	.	.	.	.	.	.	.
.	.	.	.	.	.	.	.	.	16d 16a	.	16bbJJ	.	.	.	.	.	.	.	.	.
8F#	.	.	8F#	De-	8cc	De-	4dd	-o	16d 16a	.	16cccLL	.	.	.	.	.	4dd	.	8cccL	.
.	.	.	.	.	.	.	.	.	16d 16a	.	16aa	.	.	.	.	.	.	.	.	.
8F#J	.	.	8F#	-o	8a	-o	.	.	16d 16a	.	16ccc	.	.	.	.	.	.	.	8aaJ	.
.	.	.	.	.	.	.	.	.	16dJJ 16a	.	16aaJJ	.	.	.	.	.	.	.	.	.
!	!	!	!	!	!	!	!	!	!LO:LB:g=original	!	!	!	!	!	!	!	!LO:LB:g=original	!	!	!
=26	=26	=26	=26	=26	=26	=26	=26	=26	=26	=26	=26	=26	=26	=26	=26	=26	=26	=26	=26	=26
8GL	.	.	4G	ve-	4b	ve-	4dd	ve-	16dLL 16b	.	4bb	.	2g	.	2dd	.	4dd	.	4bb	.
.	.	.	.	.	.	.	.	.	16d 16b	.	.	.	.	.	.	.	.	.	.	.
8G	.	.	.	.	.	.	.	.	16d 16b	.	.	.	.	.	.	.	.	.	.	.
.	.	.	.	.	.	.	.	.	16d 16b	.	.	.	.	.	.	.	.	.	.	.
8G	.	.	4G	-ro	4b	-ro	4dd	-ro	16d 16b	.	8r	.	.	.	.	.	4r	.	4r	.
.	.	.	.	.	.	.	.	.	16d 16b	.	.	.	.	.	.	.	.	.	.	.
8G	.	.	.	.	.	.	.	.	16d 16b	.	16ggLL	.	.	.	.	.	.	.	.	.
.	.	.	.	.	.	.	.	.	16d 16b	.	16aaJJ	.	.	.	.	.	.	.	.	.
8G	.	.	4r	.	4r	.	4r	.	16d 16b	.	16bbLL	.	4g	.	4dd	.	4dd	.	8bbL	.
.	.	.	.	.	.	.	.	.	16d 16b	.	16gg	.	.	.	.	.	.	.	.	.
8GJ	.	.	.	.	.	.	.	.	16d 16b	.	16bb	.	.	.	.	.	.	.	8ggJ	.
.	.	.	.	.	.	.	.	.	16dJJ 16b	.	16ggJJ	.	.	.	.	.	.	.	.	.
!	!	!	!LO:LB:g=original	!	!	!	!	!	!	!	!	!	!	!	!	!	!	!	!	!
*Xtremolo	*	*	*	*	*	*	*	*	*	*	*	*	*	*	*	*	*	*	*	*
=27	=27	=27	=27	=27	=27	=27	=27	=27	=27	=27	=27	=27	=27	=27	=27	=27	=27	=27	=27	=27
8cL\	.	.	8c	ge-	8cc	ge-	8ee	ge-	16dLL 16cc	.	8aaL	.	2.r	.	2.r	.	8ccL	.	4aa	.
.	.	.	.	.	.	.	.	.	16d 16cc	.	.	.	.	.	.	.	.	.	.	.
8c\	.	.	8c	-ni-	8cc	-ni-	8ee	-ni-	16d 16cc	.	8cccJ	.	.	.	.	.	8dd	.	.	.
.	.	.	.	.	.	.	.	.	16d 16cc	.	.	.	.	.	.	.	.	.	.	.
8d/	.	.	4c	-tum	4a	-tum	4dd	-tum	16d 16cc	.	8ff#XL	.	.	.	.	.	8cc	.	4ff#X	.
.	.	.	.	.	.	.	.	.	16d 16cc	.	.	.	.	.	.	.	.	.	.	.
8d/	.	.	.	.	.	.	.	.	16d 16cc	.	8aaJ	.	.	.	.	.	8dd	.	.	.
.	.	.	.	.	.	.	.	.	16d 16cc	.	.	.	.	.	.	.	.	.	.	.
8D\	.	.	4d	non	4a	non	4dd	non	16d 16cc	.	8ddL	.	.	.	.	.	8cc	.	4dd	.
.	.	.	.	.	.	.	.	.	16d 16cc	.	.	.	.	.	.	.	.	.	.	.
8DJ\	.	.	.	.	.	.	.	.	16d 16cc	.	16eeL	.	.	.	.	.	8ddJ	.	.	.
.	.	.	.	.	.	.	.	.	16dJJ 16cc	.	16ff#JJ	.	.	.	.	.	.	.	.	.
*	*	*	*	*	*	*	*	*	*Xtremolo	*	*	*	*	*	*	*	*	*	*	*
!	!	!	!	!	!	!	!	!	!	!	!	!	!	!	!	!	!	!	!LO:PB:g=original	!
=28	=28	=28	=28	=28	=28	=28	=28	=28	=28	=28	=28	=28	=28	=28	=28	=28	=28	=28	=28	=28
8GGL	.	.	4G	fac-	4b	fac-	4dd	fac-	8dL 8b	.	4gg	.	4g	.	4g	.	4b	.	4gg	.
16BBL	.	.	.	.	.	.	.	.	8dJ 8b	.	.	.	.	.	.	.	.	.	.	.
16DJJ	.	.	.	.	.	.	.	.	.	.	.	.	.	.	.	.	.	.	.	.
8G'L	.	.	4G	-tum	4b	-tum	4dd	-tum	8dL 8b	.	8r	.	4r	.	4r	.	4r	.	4r	.
8D'	.	.	.	.	.	.	.	.	8d	.	8dd	.	.	.	.	.	.	.	.	.
8E'	.	.	4r	.	4r	.	4r	.	8e	.	8eeL	.	4r	.	4r	.	4r	.	4r	.
8F#X'J	.	.	.	.	.	.	.	.	8f#XJ	.	8ff#XJ	.	.	.	.	.	.	.	.	.
!LO:LB:g=original	!	!	!	!	!	!	!LO:LB:g=original	!	!	!	!LO:LB:g=original	!	!	!	!	!	!	!	!	!
=29	=29	=29	=29	=29	=29	=29	=29	=29	=29	=29	=29	=29	=29	=29	=29	=29	=29	=29	=29	=29
8G'L	.	.	8G	con-	8g	con-	8gg	con-	8gL	.	8ggL	.	8gL	.	8gL	.	8gL	.	8ggL	.
8F#X'	.	.	8F#X	-sub-	8f#X	-sub-	8ff#X	-sub-	8f#X	.	8ff#X	.	8gJ	.	8gJ	.	8f#X	.	8ff#X	.
8A'	.	.	8G	-stan-	8g	-stan-	8gg	-stan-	8g	.	8gg	.	4g	.	4g	.	8g	.	8gg	.
8D'	.	.	8D	-ti-	8d	-ti-	8dd	-ti-	8d	.	8dd	.	.	.	.	.	8d	.	8dd	.
!	!	!	!	!	!LO:LB:g=original	!	!	!	!	!	!	!	!	!	!	!	!	!	!	!
8E'	.	.	8E	-a-	8e	-a-	8ee	-a-	8e	.	8ee	.	4r	.	4r	.	8e	.	8ee	.
8F#'J	.	.	8F#	-lem	8f#X	-lem	8ff#	-lem	8f#J	.	8ff#J	.	.	.	.	.	8f#J	.	8ff#J	.
=30	=30	=30	=30	=30	=30	=30	=30	=30	=30	=30	=30	=30	=30	=30	=30	=30	=30	=30	=30	=30
8G'L	.	.	8GL	Pa-	8gL	Pa-	8ggL	Pa-	8gL	.	16ggLL	.	8gL	.	8gL	.	8gL	.	8ggL	.
.	.	.	.	.	.	.	.	.	.	.	16aa	.	.	.	.	.	.	.	.	.
8F#X'	.	.	8F#XJ	.	8f#XJ	.	8ff#XJ	.	8f#X	.	16ff#X	.	8gJ	.	8gJ	.	8f#X	.	8ff#X	.
.	.	.	.	.	.	.	.	.	.	.	16aaJJ	.	.	.	.	.	.	.	.	.
8G'	.	.	4G	-tri	4g	-tri	4gg	-tri	8g	.	8ggL	.	4g	.	4g	.	8g	.	8gg	.
8D'	.	.	.	.	.	.	.	.	8d	.	8dd	.	.	.	.	.	8d	.	8dd	.
8E'	.	.	4r	.	4r	.	4r	.	8e	.	8ee	.	4r	.	4r	.	8e	.	8ee	.
8Fny'J	.	.	.	.	.	.	.	.	8f#J	.	8ff#J	.	.	.	.	.	8f#J	.	8ff#J	.
!	!	!	!LO:LB:g=original	!	!	!	!	!	!	!	!	!	!	!	!	!	!	!	!	!
=31	=31	=31	=31	=31	=31	=31	=31	=31	=31	=31	=31	=31	=31	=31	=31	=31	=31	=31	=31	=31
8G'L	.	.	8GL	Pa-	8gL	Pa-	8ggL	Pa-	8gL	.	16ggLL	.	8gL	.	8gL	.	8gL	.	8ggL	.
.	.	.	.	.	.	.	.	.	.	.	16aa	.	.	.	.	.	.	.	.	.
8F#X'	.	.	8F#XJ	.	8f#XJ	.	8ff#XJ	.	8f#X	.	16ff#X	.	8gJ	.	8gJ	.	8f#X	.	8ff#X	.
.	.	.	.	.	.	.	.	.	.	.	16aaJJ	.	.	.	.	.	.	.	.	.
8G'	.	.	4G	-tri	4g	-tri	4gg	-tri	8g	.	8ggL	.	4g	.	4g	.	8g	.	8gg	.
8Fn'	.	.	.	.	.	.	.	.	8fn	.	8ffn	.	.	.	.	.	8fn	.	8ffn	.
8E'	.	.	4r	.	4r	.	4r	.	8e	.	8ee	.	4r	.	4r	.	8e	.	8ee	.
8D'J	.	.	.	.	.	.	.	.	8dJ	.	8ddJ	.	.	.	.	.	8dJ	.	8ddJ	.
!	!	!	!	!	!	!	!	!	!	!	!	!	!	!	!	!	!LO:LB:g=original	!	!	!
=32	=32	=32	=32	=32	=32	=32	=32	=32	=32	=32	=32	=32	=32	=32	=32	=32	=32	=32	=32	=32
8C'L	.	.	8cL	Pa-	8ccL	per	8ccL	per	8cL	.	8ccL\	.	8cL	.	8ccL	.	4c	.	4cc	.
8BB'	.	.	8BJ	.	8bJ	.	8bJ	.	8B	.	8b\	.	8cJ	.	8ccJ	.	.	.	.	.
8C'	.	.	4c	-tri	4cc	quem	4cc	quem	8c	.	8cc\	.	4c	.	4cc	.	4r	.	4r	.
8GG'	.	.	.	.	.	.	.	.	8G	.	8g/	.	.	.	.	.	.	.	.	.
8AA'	.	.	4r	.	4r	.	4r	.	8A	.	8a/	.	4r	.	4r	.	4r	.	4r	.
8BB'J	.	.	.	.	.	.	.	.	8BJ	.	8bJ/	.	.	.	.	.	.	.	.	.
!	!	!	!	!	!	!	!	!	!LO:LB:g=original	!	!	!	!LO:LB:g=original	!	!LO:LB:g=original	!	!	!	!	!
=33	=33	=33	=33	=33	=33	=33	=33	=33	=33	=33	=33	=33	=33	=33	=33	=33	=33	=33	=33	=33
8C'L	.	.	8c	om-	8cc	om-	8cc	om-	8cL	.	16ccLL	.	8cL	.	8ccL\	.	8ccL\	.	8cccL	.
.	.	.	.	.	.	.	.	.	.	.	16dd	.	.	.	.	.	.	.	.	.
8BB'	.	.	8B	-ni-	8b	-ni-	8b	-ni-	8B	.	16b	.	8gJ	.	8gJ/	.	8b	.	8bb	.
.	.	.	.	.	.	.	.	.	.	.	16ddJJ	.	.	.	.	.	.	.	.	.
8C'	.	.	4c	-a	4cc	-a	4cc	-a	8c	.	8ccL\	.	4cc	.	4cc	.	8cc	.	8ccc	.
8GG'	.	.	.	.	.	.	.	.	8G	.	8g/	.	.	.	.	.	8g	.	8gg	.
8AA'	.	.	4r	.	4r	.	4r	.	8A	.	8a/	.	4r	.	4r	.	8a	.	8aa	.
8BB'J	.	.	.	.	.	.	.	.	8BJ	.	8bJ/	.	.	.	.	.	8bJ	.	8bbJ	.
!	!	!	!	!	!	!	!LO:LB:g=original	!	!	!	!	!	!	!	!	!	!	!	!	!
=34	=34	=34	=34	=34	=34	=34	=34	=34	=34	=34	=34	=34	=34	=34	=34	=34	=34	=34	=34	=34
4C'\	.	.	4C	fac-	4c	fac-	4cc	fac-	4c	.	4cc	.	2cc	.	4cc	.	4cc	.	4ccc	.
4E'	.	.	4E	-ta	4e	-ta	4ee	-ta	4e	.	4ee	.	.	.	4ee	.	4r	.	4r	.
4G'	.	.	4G	sunt	4g	sunt	4gg	sunt	4g	.	4gg	.	4ee	.	4gg	.	4r	.	4r	.
!	!	!	!	!	!LO:LB:g=original	!	!	!	!	!	!LO:LB:g=original	!	!	!	!	!	!	!	!LO:LB:g=original	!
=35	=35	=35	=35	=35	=35	=35	=35	=35	=35	=35	=35	=35	=35	=35	=35	=35	=35	=35	=35	=35
.	.	.	.	.	.	.	.	.	.	.	8qqgg/	.	.	.	.	.	.	.	.	.
4F'	.	.	4F	qui	4f	qui	4ff	qui	4f	.	4ff	.	4dd	.	4ff	.	2.r	.	2.r	.
4D'/	.	.	4d	prop-	4dd	prop-	4dd	prop-	4d	.	4dd	.	2g	.	2dd	.	.	.	.	.
4BB'	.	.	4B	-ter	4b	-ter	4b	-ter	4B	.	4b	.	.	.	.	.	.	.	.	.
!LO:LB:g=original	!	!	!LO:LB:g=original	!	!	!	!	!	!	!	!	!	!	!	!	!	!	!	!	!
=36	=36	=36	=36	=36	=36	=36	=36	=36	=36	=36	=36	=36	=36	=36	=36	=36	=36	=36	=36	=36
!LO:TX:a:t=Solo	!	!	!	!	!	!	!	!	!	!	!	!	!	!	!	!	!	!	!	!
8C'L	.	p	4c	nos	4cc	nos	4cc	nos	8cL	p	16ccLL	p	4e	.	4cc	.	8cL	p	8ccL	p
.	.	.	.	.	.	.	.	.	.	.	16b	.	.	.	.	.	.	.	.	.
8D'	.	.	.	.	.	.	.	.	8d	.	16cc	.	.	.	.	.	8d	.	8dd	.
.	.	.	.	.	.	.	.	.	.	.	16ddJJ	.	.	.	.	.	.	.	.	.
8E'	.	.	4r	.	4r	.	4r	.	8e	.	16eeLL	.	4r	.	4r	.	8e	.	8ee	.
.	.	.	.	.	.	.	.	.	.	.	16dd	.	.	.	.	.	.	.	.	.
8F'	.	.	.	.	.	.	.	.	8f	.	16ee	.	.	.	.	.	8f	.	8ff	.
.	.	.	.	.	.	.	.	.	.	.	16ffJJ	.	.	.	.	.	.	.	.	.
8G'	.	.	4r	.	4r	.	4r	.	8g	.	8ggL	.	4r	.	4r	.	8g	.	8gg	.
8E'J	.	.	.	.	.	.	.	.	8eJ	.	8eeJ	.	.	.	.	.	8eJ	.	8eeJ	.
=37	=37	=37	=37	=37	=37	=37	=37	=37	=37	=37	=37	=37	=37	=37	=37	=37	=37	=37	=37	=37
4F'	.	.	4f	ho-	(>4f	ho-	4ff	ho-	4f	f	4ff	f	2.r	.	2.r	.	4f	.	4gg	.
4D'/	.	.	4d	-mi-	4dd)	.	4dd	-mi-	4d	.	4dd	.	.	.	.	.	4dd	.	4ddd	.
4BB'	.	.	4B	-nes	8b	-mi-	4b	-nes	4B	.	4b	.	.	.	.	.	4b	.	4bb	.
.	.	.	.	.	8b	-nes	.	.	.	.	.	.	.	.	.	.	.	.	.	.
=38	=38	=38	=38	=38	=38	=38	=38	=38	=38	=38	=38	=38	=38	=38	=38	=38	=38	=38	=38	=38
8C'L	.	p	4c	et	4cc	et	4cc	et	8cL	p	8ccL	p	2.r	.	2.r	.	4cc	.	4ccc	.
8D'	.	.	.	.	.	.	.	.	8d	.	8dd	.	.	.	.	.	.	.	.	.
8E'	.	.	8EL	prop-	4cc	prop-	4cc	prop-	8e	.	8ee	.	.	.	.	.	4r	.	4r	.
8F'	.	.	8FJ	.	.	.	.	.	8f	.	8ff	.	.	.	.	.	.	.	.	.
8G'	.	.	8GL	-ter	4cc	-ter	4cc	-ter	8g	.	8gg	.	.	.	.	.	4r	.	4r	.
8A'J	.	.	8AJ	.	.	.	.	.	8aJ	.	8aaJ	.	.	.	.	.	.	.	.	.
=39	=39	=39	=39	=39	=39	=39	=39	=39	=39	=39	=39	=39	=39	=39	=39	=39	=39	=39	=39	=39
4B-X'	.	.	4B-X	noſ-	2cc	noſ-	2cc	noſ-	4b-X/	.	4bb-X	???	2.r	.	2.r	.	2.r	.	2.r	.
4G'	.	.	4G	-tram	.	.	.	.	4g	.	4gg	.	.	.	.	.	.	.	.	.
4E'	.	.	4E	sa-	8cc	-tram	8cc	-tram	4e	.	4ee	.	.	.	.	.	.	.	.	.
.	.	.	.	.	8cc	sa-	8cc	sa-	.	.	.	.	.	.	.	.	.	.	.	.
!	!	!	!	!	!LO:LB:g=original	!	!LO:LB:g=original	!	!	!	!	!	!	!	!	!	!	!	!	!
=40	=40	=40	=40	=40	=40	=40	=40	=40	=40	=40	=40	=40	=40	=40	=40	=40	=40	=40	=40	=40
*tremolo	*	*	*	*	*	*	*	*	*	*	*	*	*	*	*	*	*	*	*	*
8FL	.	.	4F	-lu-	4a	-lu-	4ff	-lu-	8aL	.	8ffL	.	2.r	.	2.r	.	2.r	.	2.r	.
8F	.	.	.	.	.	.	.	.	8aJ	.	8ddJ	.	.	.	.	.	.	.	.	.
8F	.	.	4F	-tem	4a	-tem	4ff	-tem	4.cc	.	4.aa	.	.	.	.	.	.	.	.	.
8F	.	.	.	.	.	.	.	.	.	.	.	.	.	.	.	.	.	.	.	.
8F	.	.	8r	.	8r	.	8r	.	.	.	.	.	.	.	.	.	.	.	.	.
8FJ	.	.	8c	deſ-	8g	de-	8gg	des-	8b-X	.	8gg	.	.	.	.	.	.	.	.	.
!	!	!	!LO:PB:g=original	!	!	!	!	!	!LO:LB:g=original	!	!	!	!	!	!	!	!	!	!	!
*Xtremolo	*	*	*	*	*	*	*	*	*	*	*	*	*	*	*	*	*	*	*	*
=41	=41	=41	=41	=41	=41	=41	=41	=41	=41	=41	=41	=41	=41	=41	=41	=41	=41	=41	=41	=41
8FL	.	.	4F	-cen-	8fL	-scen-	4ff	-cen-	8aL	.	8ffL	.	2.r	.	2.r	.	2.r	.	2.r	.
8FJ	.	.	.	.	8aJ	.	.	.	8ffJ	.	8ccJ	.	.	.	.	.	.	.	.	.
8FL	.	.	4F	-dit	4a	-dit	4ff	-dit	4.aa	.	4.ccc	.	.	.	.	.	.	.	.	.
8FJ	.	.	.	.	.	.	.	.	.	.	.	.	.	.	.	.	.	.	.	.
8FL	4- 2	.	8r	.	8r	.	8r	.	.	.	.	.	.	.	.	.	.	.	.	.
8FJ	.	.	8c	de	8b-X	de	8gg	de	8gg	.	8bb-X	.	.	.	.	.	.	.	.	.
!	!	!	!	!	!	!	!	!	!	!	!LO:LB:g=original	!	!	!	!	!	!	!	!	!
=42	=42	=42	=42	=42	=42	=42	=42	=42	=42	=42	=42	=42	=42	=42	=42	=42	=42	=42	=42	=42
*tremolo	*	*	*	*	*	*	*	*	*	*	*	*	*	*	*	*	*	*	*	*
8FL	5 3	.	4F	cae-	8aL	cae-	4ff	cae-	8cc	.	8aaL	.	2.r	.	2.r	.	2.r	.	2.r	.
8F	.	.	.	.	8gJ	.	.	.	4cc	.	8gg	.	.	.	.	.	.	.	.	.
8F	4- 2	.	4F	-lis	4a	-lis	4ff	-lis	.	.	8aa	.	.	.	.	.	.	.	.	.
8F	.	.	.	.	.	.	.	.	4cc	.	8ff	.	.	.	.	.	.	.	.	.
8F	.	.	8r	.	8r	.	8r	.	.	.	8bb-X	.	.	.	.	.	.	.	.	.
8FJ	.	.	8C	de	8g	de	8ee	de	8cc	.	8ggJ	.	.	.	.	.	.	.	.	.
=43	=43	=43	=43	=43	=43	=43	=43	=43	=43	=43	=43	=43	=43	=43	=43	=43	=43	=43	=43	=43
8FL	.	.	4F	cae-	4a	cae-	4ff	cae-	8aL	.	8ffL	.	2.r	.	2.r	.	2.r	.	2.r	.
8F	.	.	.	.	.	.	.	.	8ccJ	.	8aaJ	.	.	.	.	.	.	.	.	.
8F	.	.	4F	-lis	4a	-lis	4ff	-lis	4.aa	.	4.ccc	.	.	.	.	.	.	.	.	.
8F	.	.	.	.	.	.	.	.	.	.	.	.	.	.	.	.	.	.	.	.
8F	.	.	4r	.	4r	.	4r	.	.	.	.	.	.	.	.	.	.	.	.	.
8FJ	.	.	.	.	.	.	.	.	8gg	.	8bb-X	.	.	.	.	.	.	.	.	.
=44	=44	=44	=44	=44	=44	=44	=44	=44	=44	=44	=44	=44	=44	=44	=44	=44	=44	=44	=44	=44
*	*	*	*	*	*	*	*	*	*tremolo	*	*	*	*	*	*	*	*	*	*	*
8FL	.	.	4F	et	8aL	et	4cc	et	16ccLL	.	(>8aaL	.	2.r	.	2.r	.	2.r	.	2.r	.
.	.	.	.	.	.	.	.	.	16cc	.	.	.	.	.	.	.	.	.	.	.
8F	.	.	.	.	8gJ	.	.	.	16cc	.	8gg)	.	.	.	.	.	.	.	.	.
.	.	.	.	.	.	.	.	.	16cc	.	.	.	.	.	.	.	.	.	.	.
8F	.	.	4F	in-	8fL	in-	4cc	in-	16cc	.	(>8ff	.	.	.	.	.	.	.	.	.
.	.	.	.	.	.	.	.	.	16cc	.	.	.	.	.	.	.	.	.	.	.
8F	.	.	.	.	8gJ	.	.	.	16cc	.	8gg)	.	.	.	.	.	.	.	.	.
.	.	.	.	.	.	.	.	.	16cc	.	.	.	.	.	.	.	.	.	.	.
!	!	!	!	!	!LO:LB:g=original	!	!	!	!	!	!	!	!	!	!	!	!	!	!	!
8F	.	.	4F	-car-	8aL	-car-	4cc	-car-	16cc	.	(>8aa	.	.	.	.	.	.	.	.	.
.	.	.	.	.	.	.	.	.	16cc	.	.	.	.	.	.	.	.	.	.	.
8FJ	.	.	.	.	8fJ	.	.	.	16cc	.	8ffJ)	.	.	.	.	.	.	.	.	.
.	.	.	.	.	.	.	.	.	16ccJJ	.	.	.	.	.	.	.	.	.	.	.
=45	=45	=45	=45	=45	=45	=45	=45	=45	=45	=45	=45	=45	=45	=45	=45	=45	=45	=45	=45	=45
8EL	6	.	8G	-na-	8b-X	-na-	8cc	-na-	16gLL 16cc	.	(>8bb-XL	.	2.r	.	2.r	.	2.r	.	2.r	.
.	.	.	.	.	.	.	.	.	16g 16cc	.	.	.	.	.	.	.	.	.	.	.
8E	.	.	8G	-tus	8a	-tus	8cc	-tus	16g 16cc	.	8aa)	.	.	.	.	.	.	.	.	.
.	.	.	.	.	.	.	.	.	16g 16cc	.	.	.	.	.	.	.	.	.	.	.
8E	.	.	4G	eſt	4g	eſt	4cc	eſt	16g 16cc	.	(>8gg	.	.	.	.	.	.	.	.	.
.	.	.	.	.	.	.	.	.	16g 16cc	.	.	.	.	.	.	.	.	.	.	.
8E	.	.	.	.	.	.	.	.	16g 16cc	.	8aa)	.	.	.	.	.	.	.	.	.
.	.	.	.	.	.	.	.	.	16g 16cc	.	.	.	.	.	.	.	.	.	.	.
8E	.	.	4r	.	4r	.	4r	.	16g 16cc	.	(>8bb-	.	.	.	.	.	.	.	.	.
.	.	.	.	.	.	.	.	.	16g 16cc	.	.	.	.	.	.	.	.	.	.	.
8EJ	.	.	.	.	.	.	.	.	16g 16cc	.	8ggJ)	.	.	.	.	.	.	.	.	.
.	.	.	.	.	.	.	.	.	16gJJ 16cc	.	.	.	.	.	.	.	.	.	.	.
!	!	!	!LO:LB:g=original	!	!	!	!LO:LB:g=original	!	!	!	!	!	!	!	!	!	!	!	!	!
=46	=46	=46	=46	=46	=46	=46	=46	=46	=46	=46	=46	=46	=46	=46	=46	=46	=46	=46	=46	=46
8FL	.	.	4F	de	8aL	de	4cc	de	16ccLL	.	16aaLL	.	2.r	.	2.r	.	2.r	.	2.r	.
.	.	.	.	.	.	.	.	.	16cc	.	16aa	.	.	.	.	.	.	.	.	.
8F	.	.	.	.	8gJ	.	.	.	16cc	.	16gg	.	.	.	.	.	.	.	.	.
.	.	.	.	.	.	.	.	.	16cc	.	16ggJJ	.	.	.	.	.	.	.	.	.
8F	.	.	8F	spi-	8f	spi-	8cc	spi-	16cc	.	16ffLL	.	.	.	.	.	.	.	.	.
.	.	.	.	.	.	.	.	.	16cc	.	16ff	.	.	.	.	.	.	.	.	.
8F	.	.	8F	-ri-	8g	-ri-	8cc	-ri-	16cc	.	16gg	.	.	.	.	.	.	.	.	.
.	.	.	.	.	.	.	.	.	16cc	.	16ggJJ	.	.	.	.	.	.	.	.	.
8F	.	.	4F	-tu	4a	-tu	4cc	-tu	16cc	.	8aaL	.	.	.	.	.	.	.	.	.
.	.	.	.	.	.	.	.	.	16cc	.	.	.	.	.	.	.	.	.	.	.
8FJ	.	.	.	.	.	.	.	.	16cc	.	8ffJ	.	.	.	.	.	.	.	.	.
.	.	.	.	.	.	.	.	.	16ccJJ	.	.	.	.	.	.	.	.	.	.	.
*	*	*	*	*	*	*	*	*	*Xtremolo	*	*	*	*	*	*	*	*	*	*	*
!LO:LB:g=original	!	!	!	!	!	!	!	!	!	!	!	!	!	!	!	!	!LO:LB:g=original	!	!	!
=47	=47	=47	=47	=47	=47	=47	=47	=47	=47	=47	=47	=47	=47	=47	=47	=47	=47	=47	=47	=47
!LO:TX:a:t=Tutti	!	!	!	!	!	!	!	!	!	!	!	!	!	!	!	!	!	!	!	!
8G'L	.	f	8GL	San-	8gL	San-	8ggL	San-	8gL	f	8gg`L	f	4g	.	8ggL	.	8gL	f	8gg`L	f
8F'	.	.	8F	.	8f	.	8ff	.	8f	.	8ff`	.	.	.	8ff	.	8f	.	8ff`	.
8E'	.	.	8E	.	8e	.	8ee	.	8e	.	8ee`	.	4g	.	8ee	.	8e	.	8ee`	.
8D'J	.	.	8DJ	.	8dJ	.	8ddJ	.	8dJ	.	8dd`J	.	.	.	8ddJ	.	8dJ	.	8dd`J	.
4C'	.	.	4C	-cto	4c	-cto	4cc	-cto	4c	.	4cc	.	4e	.	4cc	.	4c	.	4cc`	.
!	!	!	!	!	!	!	!	!	!	!	!LO:LB:g=original	!	!	!	!	!	!	!	!	!
=48	=48	=48	=48	=48	=48	=48	=48	=48	=48	=48	=48	=48	=48	=48	=48	=48	=48	=48	=48	=48
8C'L	.	.	2.r	.	2.r	.	2.r	.	8c'L	???	8ccL	.	4r	.	4r	.	8cL	.	8ccL	.
8D'	.	.	.	.	.	.	.	.	8d'	.	8dd	.	.	.	.	.	8d	.	8dd	.
8E'	.	.	.	.	.	.	.	.	8e'	.	8ee	.	4r	.	4r	.	8e	.	8ee	.
8F'	.	.	.	.	.	.	.	.	8f'	.	8ff	.	.	.	.	.	8f	.	8ff	.
8G'	.	.	.	.	.	.	.	.	8g'	.	8gg	.	4g	.	8ggL	.	8g	.	8gg	.
8A'J	.	.	.	.	.	.	.	.	8a'J	.	8aaJ	.	.	.	8aaJ	.	8aJ	.	8aaJ	.
=49	=49	=49	=49	=49	=49	=49	=49	=49	=49	=49	=49	=49	=49	=49	=49	=49	=49	=49	=49	=49
8G'L	.	.	2.r	.	2.r	.	2.r	.	8g'L	.	8ggL	.	4g	.	8ggL	.	8gL	.	8ggL	.
8F'	.	.	.	.	.	.	.	.	8f'	.	8ff	.	.	.	8ff	.	8f	.	8ff	.
8E'	.	.	.	.	.	.	.	.	8e'	.	8ee	.	4g	.	8ee	.	8e	.	8ee	.
8D'J	.	.	.	.	.	.	.	.	8d'J	.	8ddJ	.	.	.	8ddJ	.	8dJ	.	8ddJ	.
4C'	.	.	.	.	.	.	.	.	4c	.	4cc	.	4e	.	4cc	.	4c	.	4cc	.
!	!	!	!	!	!LO:LB:g=original	!	!	!	!LO:LB:g=original	!	!	!	!	!	!	!	!	!	!LO:LB:g=original	!
=50	=50	=50	=50	=50	=50	=50	=50	=50	=50	=50	=50	=50	=50	=50	=50	=50	=50	=50	=50	=50
*	*	*	*	*	*	*	*	*	*tremolo	*	*	*	*	*	*	*	*	*	*	*
8GL	.	p	8G	ex	8gL	ex	8b	ex	8dL 8b	p	8bnL	p	2.r	.	2.r	.	2.r	.	2.r	.
8G	.	.	8G	Ma-	8aJ	.	8cc	Ma-	8d 8b	.	8cc	.	.	.	.	.	.	.	.	.
8G	.	.	4G	-ri-	8bnL	Ma-	8ddL	-ri-	8d 8b	.	8dd	.	.	.	.	.	.	.	.	.
8G	.	.	.	.	8ccJ	.	8eeJ	.	8d 8b	.	8ee	.	.	.	.	.	.	.	.	.
8G	.	.	4G	-a	8ddL	-ri-	8ffL	-a	8d 8b	.	8ff	.	.	.	.	.	.	.	.	.
8GJ	.	.	.	.	8eeJ	-a	8ggJ	.	8dJ 8b	.	8ggJ	.	.	.	.	.	.	.	.	.
*	*	*	*	*	*	*	*	*	*Xtremolo	*	*	*	*	*	*	*	*	*	*	*
=51	=51	=51	=51	=51	=51	=51	=51	=51	=51	=51	=51	=51	=51	=51	=51	=51	=51	=51	=51	=51
8GL	7	.	8G	Vir-	8dd	Vir-	8ff	Vir-	(<8dL	.	8ggL	.	4r	.	4r	.	4b	p	8ggL	p
8G	.	.	8G	-gi-	8dd	-gi-	8ff	-gi-	8b)	.	8ffJ	.	.	.	.	.	.	.	8ffJ	.
8G	.	.	2G	-ne	2b	-ne	2dd	-ne	(<8d	.	2dd	.	8gL	p	8ddL	p	2b	.	2dd	.
8G	.	.	.	.	.	.	.	.	8b)	.	.	.	8gJ	.	8ddJ	.	.	.	.	.
8G	.	.	.	.	.	.	.	.	(<8d	.	.	.	4g	.	4dd	.	.	.	.	.
8GJ	.	.	.	.	.	.	.	.	8bJ)	.	.	.	.	.	.	.	.	.	.	.
!	!	!	!LO:LB:g=original	!	!	!	!	!	!	!	!	!	!	!	!	!	!	!	!	!
=52	=52	=52	=52	=52	=52	=52	=52	=52	=52	=52	=52	=52	=52	=52	=52	=52	=52	=52	=52	=52
*	*	*	*	*	*	*	*	*	*tremolo	*	*	*	*	*	*	*	*	*	*	*
8CL	.	.	4c	et	4g	et	8ccL	et	8eL 8cc	.	8ccL	.	2.r	.	2.r	.	2.r	.	2.r	.
8C	.	.	.	.	.	.	8ddJ	.	8e 8cc	.	8dd	.	.	.	.	.	.	.	.	.
8C	.	.	4c	ho-	4g	ho-	8eeL	ho-	8e 8cc	.	8ee	.	.	.	.	.	.	.	.	.
8C	.	.	.	.	.	.	8ffJ	.	8e 8cc	.	8ff	.	.	.	.	.	.	.	.	.
8C	.	.	4c	-mo	4g	-mo	8ggL	-mo	8e 8cc	.	8gg	.	.	.	.	.	.	.	.	.
8CJ	.	.	.	.	.	.	8aaJ	.	8eJ 8cc	.	8aaJ	.	.	.	.	.	.	.	.	.
*Xtremolo	*	*	*	*	*	*	*	*	*Xtremolo	*	*	*	*	*	*	*	*	*	*	*
!	!	!	!	!	!	!	!LO:LB:g=original	!	!	!	!	!	!	!	!	!	!	!	!	!
=53	=53	=53	=53	=53	=53	=53	=53	=53	=53	=53	=53	=53	=53	=53	=53	=53	=53	=53	=53	=53
8CL	.	.	8cL	fac-	8g	fac-	8gg	fac-	(<8eL/	.	8aaL	.	4r	.	4r	.	4g	.	8aaL	.
8CJ	.	.	8cJ	-tus	8g	-tus	8gg	-tus	8ccJ\)	.	8ggJ	.	.	.	.	.	.	.	8ggJ	.
8CL/	.	.	2c	eſt	2g	eſt	4ee	eſt	(<8eL/	.	2ee	.	8ccL	.	8eeL	.	2g	.	2ee	.
8c\	.	.	.	.	.	.	.	.	8ccJ\)	.	.	.	8ccJ	.	8eeJ	.	.	.	.	.
8C/	.	.	.	.	.	.	4r	.	(<8eL/	.	.	.	4cc	.	4ee	.	.	.	.	.
8cJ\	.	.	.	.	.	.	.	.	8ccJ\)	.	.	.	.	.	.	.	.	.	.	.
!	!	!	!	!	!LO:LB:g=original	!	!	!	!	!	!	!	!LO:LB:g=original	!	!LO:PB:g=original	!	!	!	!	!
=54||	=54||	=54||	=54||	=54||	=54||	=54||	=54||	=54||	=54||	=54||	=54||	=54||	=54||	=54||	=54||	=54||	=54||	=54||	=54||	=54||
!LO:TX:a:B:t=Andante	!	!	!	!	!	!	!	!	!	!	!	!	!LO:TX:a:B:t=Andante	!	!LO:TX:a:B:t=Andante	!	!	!	!	!
!LO:TX:b:t=Crucifixus	!	!	!LO:TX:a:B:t=Andante	!	!	!	!LO:TX:a:B:t=Andante	!	!	!	!LO:TX:b:t=Crucifixus	!	!LO:TX:b:t=Crucifixus	!	!LO:TX:b:t=Crucifixus	!	!LO:TX:b:t=Crucifixus	!	!LO:TX:a:B:t=Andante	!
8c'L	.	.	8c	Cru-	8cc	Cru-	8cc	Cru-	8cL	f	8ccL	.	2.r	.	2.r	.	2.r	.	2.r	.
8c'J	.	.	8c	-ci-	8cc	-ci-	8cc	-ci-	8cJ	.	8cccJ	.	.	.	.	.	.	.	.	.
4c'	.	.	4c	-fi-	4cc	-fi-	4cc	-fi-	4c	.	4ccc	.	.	.	.	.	.	.	.	.
4G'	.	.	4G	-xus	4g	-xus	4g/	-xus	4G	.	4gg	.	.	.	.	.	.	.	.	.
=55	=55	=55	=55	=55	=55	=55	=55	=55	=55	=55	=55	=55	=55	=55	=55	=55	=55	=55	=55	=55
!	!	!	!	!	!LO:TX:a:B:t=Andante	!	!	!	!LO:TX:a:B:t=Andante	!	!LO:TX:a:B:t=Andante	!	!	!	!	!	!LO:TX:a:B:t=Andante	!	!	!
8A'L	.	.	8A	e-	8a	e-	8a	e-	8AL	.	8aaL	.	2.r	.	2.r	.	2.r	.	2.r	.
8B'J	.	.	8B	-ti-	8b	-ti-	8b	-ti-	8BJ	.	8bbJ	.	.	.	.	.	.	.	.	.
2c'	.	.	2c	-am	2cc	-am	4cc	-am	2c	.	2ccc	.	.	.	.	.	.	.	.	.
.	.	.	.	.	.	.	4r	.	.	.	.	.	.	.	.	.	.	.	.	.
!LO:LB:g=original	!	!	!LO:LB:g=original	!	!	!	!	!	!LO:PB:g=original	!	!LO:LB:g=original	!	!	!	!	!	!	!	!	!
=56	=56	=56	=56	=56	=56	=56	=56	=56	=56	=56	=56	=56	=56	=56	=56	=56	=56	=56	=56	=56
8c'L	.	.	4r	.	4r	.	4r	.	8cL	.	8cccL	.	2.r	.	2.r	.	2.r	.	2.r	.
8B'	.	.	.	.	.	.	.	.	8B	.	8bb	.	.	.	.	.	.	.	.	.
8c'	.	.	4r	.	4r	.	4r	.	8c	.	8ccc	.	.	.	.	.	.	.	.	.
8B'	.	.	.	.	.	.	.	.	8B	.	8bb	.	.	.	.	.	.	.	.	.
8c'	.	.	4G	pro	8r	.	4g/	pro	8c	.	8ccc	.	.	.	.	.	.	.	.	.
8G'J	.	.	.	.	8g	pro	.	.	8GJ	.	8bbJ	.	.	.	.	.	.	.	.	.
=57	=57	=57	=57	=57	=57	=57	=57	=57	=57	=57	=57	=57	=57	=57	=57	=57	=57	=57	=57	=57
8AL	.	.	8AL	no-	8aL	no-	8aL	no-	8AL	.	8aaL	.	2.r	.	2.r	.	2.r	.	2.r	.
8BJ	.	.	8BJ	.	8bJ	.	8bJ	.	8AJ	.	8bbJ	.	.	.	.	.	.	.	.	.
*tremolo	*	*	*	*	*	*	*	*	*	*	*	*	*	*	*	*	*	*	*	*
8cL	.	.	2c	-bis	2cc	-bis	2cc	-bis	2c	.	2ccc	.	.	.	.	.	.	.	.	.
8c	.	.	.	.	.	.	.	.	.	.	.	.	.	.	.	.	.	.	.	.
8c	.	.	.	.	.	.	.	.	.	.	.	.	.	.	.	.	.	.	.	.
8cJ	.	.	.	.	.	.	.	.	.	.	.	.	.	.	.	.	.	.	.	.
=58	=58	=58	=58	=58	=58	=58	=58	=58	=58	=58	=58	=58	=58	=58	=58	=58	=58	=58	=58	=58
!LO:TX:a:t=Problem:repetycja taktu	!	!	!	!	!	!	!	!	!	!	!	!	!	!	!	!	!	!	!	!
!LO:TX:a:t=Solo	!	!	!	!	!	!	!	!	!	!	!	!	!	!	!	!	!	!	!	!
8CL	.	p	8C	mor-	8g	mor-	8ee	mor-	8gL	p	8eeL	p	2.r	.	2.r	.	2.r	.	2.r	.
8C	.	.	8C	-tu-	8g	-tu-	8ee	-tu-	8gJ	.	8eeJ	.	.	.	.	.	.	.	.	.
8C	.	.	8C	-us	4g	-us	4ee	-us	4.g	.	4.ee	.	.	.	.	.	.	.	.	.
8C	.	.	8r	.	.	.	.	.	.	.	.	.	.	.	.	.	.	.	.	.
8C	.	.	4r	.	4r	.	4r	.	.	.	.	.	.	.	.	.	.	.	.	.
8CJ	.	.	.	.	.	.	.	.	8e	.	8cc	.	.	.	.	.	.	.	.	.
!	!	!	!	!	!LO:LB:g=original	!	!LO:LB:g=original	!	!	!	!	!	!	!	!	!	!	!	!	!
=59	=59	=59	=59	=59	=59	=59	=59	=59	=59	=59	=59	=59	=59	=59	=59	=59	=59	=59	=59	=59
8CL	.	p	8c	et-	8a	et-	8ff	et-	8aL	.	8ffL	.	2.r	.	2.r	.	2.r	.	2.r	.
8C	.	.	8c	-se-	8g	-se-	8ee	-se-	8g	.	8ee	.	.	.	.	.	.	.	.	.
8C	.	.	4G	-pul-	8fL	-pul-	8ddL	-pul-	8f	.	8dd	.	.	.	.	.	.	.	.	.
8C	.	.	.	.	8eJ	.	8ccJ	.	8e	.	8cc	.	.	.	.	.	.	.	.	.
8C	.	.	4G	-tus	8fL	-tus	8ddL	-tus	8f	.	8dd	.	.	.	.	.	.	.	.	.
8CJ	.	.	.	.	8gJ	.	8eeJ	.	8gJ	.	8eeJ	.	.	.	.	.	.	.	.	.
=60	=60	=60	=60	=60	=60	=60	=60	=60	=60	=60	=60	=60	=60	=60	=60	=60	=60	=60	=60	=60
8CL	.	.	4C	eſt	4e	eſt	4cc	eſt	8eL/	.	8ccL	.	2.r	.	2.r	.	2.r	.	2.r	.
8C	.	.	.	.	.	.	.	.	8eeJ\	.	8ggJ	.	.	.	.	.	.	.	.	.
8C	.	.	4r	.	4r	.	4r	.	4.ee	.	4.gg	.	.	.	.	.	.	.	.	.
8C	.	.	.	.	.	.	.	.	.	.	.	.	.	.	.	.	.	.	.	.
8C	.	.	4r	.	4r	.	4r	.	.	.	.	.	.	.	.	.	.	.	.	.
8CJ	.	.	.	.	.	.	.	.	8cc	.	8ee	.	.	.	.	.	.	.	.	.
!	!	!	!LO:LB:g=original	!	!	!	!	!	!	!	!	!	!	!	!	!	!	!	!	!
=61	=61	=61	=61	=61	=61	=61	=61	=61	=61	=61	=61	=61	=61	=61	=61	=61	=61	=61	=61	=61
8CL	.	.	8r	.	8ff	et	8aa	et	8ffL	.	8aaL	.	2.r	.	2.r	.	2.r	.	2.r	.
8C	.	.	8c	se-	8ee	se-	8gg	se-	8ee	.	8gg	.	.	.	.	.	.	.	.	.
8C	.	.	4G	-pul-	8ddL	-pul-	8ffL	-pul-	8dd	.	8ff	.	.	.	.	.	.	.	.	.
8C	.	.	.	.	8ccJ	.	8eeJ	.	8cc	.	8ee	.	.	.	.	.	.	.	.	.
8C	.	.	4G	-tus	8ddL	-tus	8ffL	-tus	8dd	.	8ff	.	.	.	.	.	.	.	.	.
8CJ	.	.	.	.	8eeJ	.	8ggJ	.	8eeJ	.	8ggJ	.	.	.	.	.	.	.	.	.
!	!	!	!	!	!	!	!	!	!	!	!	!	!	!	!	!	!LO:LB:g=original	!	!	!
=62||	=62||	=62||	=62||	=62||	=62||	=62||	=62||	=62||	=62||	=62||	=62||	=62||	=62||	=62||	=62||	=62||	=62||	=62||	=62||	=62||
!LO:TX:a:B:t=Allegro	!	!	!	!	!	!	!	!	!	!	!LO:TX:a:B:t=Allegro	!	!LO:TX:a:B:t=Allegro	!	!LO:TX:a:B:t=Allegro	!	!	!	!	!
!LO:TX:b:t=Et resurrexit	!	!	!LO:TX:a:B:t=Allegro	!	!LO:TX:a:B:t=Allegro	!	!LO:TX:a:B:t=Allo.Allegro	!	!LO:TX:a:B:t=Allegro	!	!LO:TX:b:t=Et resurrexit	!	!LO:TX:b:t=Et resurrexit	!	!LO:TX:b:t=Et resurrexit	!	!LO:TX:b:B:t=Allegro	!LO:DY:a	!LO:TX:b:B:t=Allegro	!
8CL	.	.	4c	eſt	4cc	eſt	4ee	eſt	16ccLL\	.	4ee	.	4r	.	4r	.	8ee	f	8ccL	.
.	.	.	.	.	.	.	.	.	16g/	.	.	.	.	.	.	.	.	.	.	.
8C	.	.	.	.	.	.	.	.	16g/	.	.	.	.	.	.	.	4ee	.	8cccJ	.
.	.	.	.	.	.	.	.	.	16gJJ/	.	.	.	.	.	.	.	.	.	.	.
*	*	*	*	*	*	*	*	*	*tremolo	*	*	*	*	*	*	*	*	*	*	*
8C	.	.	4c	et	4g	et	4ee	et	16GLL 16g	.	8ccc	.	4r	.	4r	.	.	.	4.ccc	.
.	.	.	.	.	.	.	.	.	16G 16g	.	.	.	.	.	.	.	.	.	.	.
8C	.	.	.	.	.	.	.	.	16G 16g	.	4ccc	.	.	.	.	.	4ee	.	.	.
.	.	.	.	.	.	.	.	.	16G 16g	.	.	.	.	.	.	.	.	.	.	.
8C	.	.	8c	re-	8g	re-	8ee	re-	16G 16g	.	.	.	8r	.	8r	.	.	.	.	.
.	.	.	.	.	.	.	.	.	16G 16g	.	.	.	.	.	.	.	.	.	.	.
8CJ	.	.	8c	-sur-	8g	-sur-	8ee	-sur-	16G 16g	.	8gg	.	8ee	.	8gg	.	8ee	.	8gg	.
.	.	.	.	.	.	.	.	.	16GJJ 16g	.	.	.	.	.	.	.	.	.	.	.
!	!	!	!	!	!	!	!	!	!LO:LB:g=original	!	!LO:LB:g=original	!	!	!	!	!	!	!	!	!
=63	=63	=63	=63	=63	=63	=63	=63	=63	=63	=63	=63	=63	=63	=63	=63	=63	=63	=63	=63	=63
8GL	.	.	4G	-re-	4dd	-re-	4ff	-re-	16dLL 16b	.	8ggL	.	8eeL	.	8ggL	.	4b/	p	(>8ggL	p
.	.	.	.	.	.	.	.	.	16d 16b	.	.	.	.	.	.	.	.	.	.	.
8G	.	.	.	.	.	.	.	.	16d 16b	.	8ffJ	.	8ddJ	.	8ffJ	.	.	.	8ffJ)	.
.	.	.	.	.	.	.	.	.	16d 16b	.	.	.	.	.	.	.	.	.	.	.
8G	.	.	4G	-xit	4b	-xit	4dd	-xit	16d 16b	.	2dd	.	2g	.	2dd	.	2b/	.	2dd	.
.	.	.	.	.	.	.	.	.	16d 16b	.	.	.	.	.	.	.	.	.	.	.
8G	.	.	.	.	.	.	.	.	16d 16b	.	.	.	.	.	.	.	.	.	.	.
.	.	.	.	.	.	.	.	.	16d 16b	.	.	.	.	.	.	.	.	.	.	.
8G	.	.	4r	.	4r	.	4r	.	16d 16b	.	.	.	.	.	.	.	.	.	.	.
.	.	.	.	.	.	.	.	.	16d 16b	.	.	.	.	.	.	.	.	.	.	.
8GJ	.	.	.	.	.	.	.	.	16d 16b	.	.	.	.	.	.	.	.	.	.	.
.	.	.	.	.	.	.	.	.	16dJJ 16b	.	.	.	.	.	.	.	.	.	.	.
!	!	!	!	!	!LO:PB:g=original	!	!LO:LB:g=original	!	!	!	!	!	!	!	!	!	!	!	!	!
=64	=64	=64	=64	=64	=64	=64	=64	=64	=64	=64	=64	=64	=64	=64	=64	=64	=64	=64	=64	=64
8CL	.	.	4C	ter-	4g	ter-	4ee	ter-	(>8ccL	.	8eeL	.	8cc	.	8ee	.	2.r	.	2.r	.
8C	.	.	.	.	.	.	.	.	8dd)	.	8ff	.	8r	.	8r	.	.	.	.	.
8C	.	.	4c	-ti-	4e	-ti-	4gg	-ti-	(>8ee	.	8gg	.	8eeL	.	8ggL	.	.	.	.	.
8C	.	.	.	.	.	.	.	.	8cc)	.	8ee	.	8cc	.	8ee	.	.	.	.	.
8C	.	.	4c	-a	8fL	-a	8aaL	-a	(>8ff	.	8aa	.	8ff	.	8aa	.	.	.	.	.
8CJ	.	.	.	.	8eJ	.	8ggJ	.	8eeJ)	.	8ggJ	.	8eeJ	.	8ggJ	.	.	.	.	.
=65	=65	=65	=65	=65	=65	=65	=65	=65	=65	=65	=65	=65	=65	=65	=65	=65	=65	=65	=65	=65
8GL	.	.	4G	di-	4dd	di-	8ggL	di-	16dLL 16dd	.	8ggL	.	8eeL	.	8ggL	.	4b	.	(>8ggL	.
.	.	.	.	.	.	.	.	.	16d 16dd	.	.	.	.	.	.	.	.	.	.	.
8G	.	.	.	.	.	.	8ffJ	.	16d 16dd	.	8ffJ	.	8ddJ	.	8ffJ	.	.	.	8ffJ)	.
.	.	.	.	.	.	.	.	.	16d 16dd	.	.	.	.	.	.	.	.	.	.	.
8G	.	.	2G	-e	2b	-e	2dd	-e	16d 16dd	.	2dd	.	2g	.	2dd	.	2b	.	2dd	.
.	.	.	.	.	.	.	.	.	16d 16dd	.	.	.	.	.	.	.	.	.	.	.
8G	.	.	.	.	.	.	.	.	16d 16dd	.	.	.	.	.	.	.	.	.	.	.
.	.	.	.	.	.	.	.	.	16d 16dd	.	.	.	.	.	.	.	.	.	.	.
8G	.	.	.	.	.	.	.	.	16d 16dd	.	.	.	.	.	.	.	.	.	.	.
.	.	.	.	.	.	.	.	.	16d 16dd	.	.	.	.	.	.	.	.	.	.	.
8GJ	.	.	.	.	.	.	.	.	16d 16dd	.	.	.	.	.	.	.	.	.	.	.
.	.	.	.	.	.	.	.	.	16dJJ 16dd	.	.	.	.	.	.	.	.	.	.	.
*	*	*	*	*	*	*	*	*	*Xtremolo	*	*	*	*	*	*	*	*	*	*	*
!	!	!	!LO:LB:g=original	!	!	!	!	!	!	!	!	!	!	!	!	!	!	!	!	!
=66	=66	=66	=66	=66	=66	=66	=66	=66	=66	=66	=66	=66	=66	=66	=66	=66	=66	=66	=66	=66
8cL	.	.	4c	se-	4e	se-	4cc	se-	4g	.	4ee	.	4cc	.	4ee	.	2.r	.	2.r	.
8c	.	.	.	.	.	.	.	.	.	.	.	.	.	.	.	.	.	.	.	.
8c	.	.	4c	-cun-	8eL	-cun-	4cc	-cun-	8ccL	.	8eeL	.	4r	.	4r	.	.	.	.	.
8c	.	.	.	.	8fJ	.	.	.	8dd	.	8ff	.	.	.	.	.	.	.	.	.
8c	.	.	8E	-dum	8g	-dum	8cc	-dum	8ee	.	8gg	.	4r	.	4r	.	.	.	.	.
8cJ	.	.	8F	scrip-	8a	scrip-	8cc	scrip-	8ffJ	.	8aaJ	.	.	.	.	.	.	.	.	.
*Xtremolo	*	*	*	*	*	*	*	*	*	*	*	*	*	*	*	*	*	*	*	*
=67	=67	=67	=67	=67	=67	=67	=67	=67	=67	=67	=67	=67	=67	=67	=67	=67	=67	=67	=67	=67
8CL	6- 5	.	4G	-tu-	2b-X	-tu-	4cc	-tu-	2gg	.	2bb-X	.	2.r	.	2.r	.	2.r	.	2.r	.
8c	.	.	.	.	.	.	.	.	.	.	.	.	.	.	.	.	.	.	.	.
8G	.	.	4G	-ras	.	.	4cc	-ras	.	.	.	.	.	.	.	.	.	.	.	.
8c	.	.	.	.	.	.	.	.	.	.	.	.	.	.	.	.	.	.	.	.
8E	6	.	8E	et	8b-	-ras	8cc	et	4cc 4ee	.	4gg	.	.	.	.	.	.	.	.	.
8GJ	.	.	8E	aſ-	16g	et	8cc	aſ-	.	.	.	.	.	.	.	.	.	.	.	.
.	.	.	.	.	16g	aſ-	.	.	.	.	.	.	.	.	.	.	.	.	.	.
!LO:LB:g=original	!	!	!	!	!	!	!	!	!	!	!	!	!	!	!	!	!	!	!	!
=68	=68	=68	=68	=68	=68	=68	=68	=68	=68	=68	=68	=68	=68	=68	=68	=68	=68	=68	=68	=68
8FL	.	.	4F	-cen-	4cc	-cen-	4cc	-cen-	8aL	.	4ccc	.	2.r	.	2.r	.	2.r	.	2.r	.
8c	.	.	.	.	.	.	.	.	8cc	.	.	.	.	.	.	.	.	.	.	.
8A	.	.	4F	-dit	4a	-dit	4cc	-dit	8a	.	4aa	.	.	.	.	.	.	.	.	.
8c	.	.	.	.	.	.	.	.	8cc	.	.	.	.	.	.	.	.	.	.	.
8F	.	.	4F	in	4f	in	4cc	in	8a	.	4ff	.	.	.	.	.	.	.	.	.
8cJ	.	.	.	.	.	.	.	.	8ccJ	.	.	.	.	.	.	.	.	.	.	.
!	!	!	!	!	!LO:LB:g=original	!	!LO:LB:g=original	!	!	!	!	!	!	!	!	!	!	!	!	!
=69	=69	=69	=69	=69	=69	=69	=69	=69	=69	=69	=69	=69	=69	=69	=69	=69	=69	=69	=69	=69
8EL	6-_ 5_	.	2G	cae-	2b-X	cae-	2cc	cae-	(<8eL	.	2bb-X	.	2.r	.	2.r	.	2.r	.	2.r	.
8c	.	.	.	.	.	.	.	.	8g)	.	.	.	.	.	.	.	.	.	.	.
8G	x	.	.	.	.	.	.	.	(<8cc	.	.	.	.	.	.	.	.	.	.	.
8c	.	.	.	.	.	.	.	.	8g)	.	.	.	.	.	.	.	.	.	.	.
8E	6	.	4E	-lum	4g	-lum	4cc	-lum	(<8cc	.	4gg	.	.	.	.	.	.	.	.	.
8cJ	.	.	.	.	.	.	.	.	8gJ)	.	.	.	.	.	.	.	.	.	.	.
=70	=70	=70	=70	=70	=70	=70	=70	=70	=70	=70	=70	=70	=70	=70	=70	=70	=70	=70	=70	=70
8FL	.	.	4F	se-	4cc	se-	4cc	se-	(>8aL	.	4ccc	.	2.r	.	2.r	.	2.r	.	2.r	.
8c	.	.	.	.	.	.	.	.	8cc)	.	.	.	.	.	.	.	.	.	.	.
8A	.	.	4F	-det	8b-XL	-det	4cc	-det	(>8a	.	8bb-XL	.	.	.	.	.	.	.	.	.
8c	.	.	.	.	8aJ	.	.	.	8cc)	.	8aa	.	.	.	.	.	.	.	.	.
8F	.	.	4F	ad	8gL	ad	4cc	ad	(>8a	.	8gg	.	.	.	.	.	.	.	.	.
8cJ	.	.	.	.	8fJ	.	.	.	8ccJ)	.	8ffJ	.	.	.	.	.	.	.	.	.
!	!	!	!LO:LB:g=original	!	!	!	!	!	!LO:LB:g=original	!	!LO:LB:g=original	!	!	!	!	!	!	!	!	!
=71	=71	=71	=71	=71	=71	=71	=71	=71	=71	=71	=71	=71	=71	=71	=71	=71	=71	=71	=71	=71
8EL	.	.	4.G	dex-	4.b-X	dex-	4.cc	dex-	(>8ccL\	.	2bb-X	.	2.r	.	2.r	.	2.r	.	2.r	.
8c	.	.	.	.	.	.	.	.	8g)	.	.	.	.	.	.	.	.	.	.	.
8G	.	.	.	.	.	.	.	.	(>8cc	.	.	.	.	.	.	.	.	.	.	.
8c	.	.	8G	-te-	8b-	-te-	8cc	-te-	8g)	.	.	.	.	.	.	.	.	.	.	.
8E	.	.	4E	-ram	4g	-ram	4cc	-ram	(>8cc	.	4gg	.	.	.	.	.	.	.	.	.
8cJ	.	.	.	.	.	.	.	.	8gJ)	.	.	.	.	.	.	.	.	.	.	.
=72	=72	=72	=72	=72	=72	=72	=72	=72	=72	=72	=72	=72	=72	=72	=72	=72	=72	=72	=72	=72
8FL	.	.	4F	Pa-	4a	Pa-	2cc	Pa-	16aLL\	p	4aa	.	2.r	.	2.r	.	4a	p	4aa	p
.	.	.	.	.	.	.	.	.	16a	.	.	.	.	.	.	.	.	.	.	.
8F	.	.	.	.	.	.	.	.	16a	.	.	.	.	.	.	.	.	.	.	.
.	.	.	.	.	.	.	.	.	16aJJ	.	.	.	.	.	.	.	.	.	.	.
*	*	*	*	*	*	*	*	*	*tremolo	*	*	*	*	*	*	*	*	*	*	*
8G	6	.	4G	.	8ccL	.	.	.	16ccLL	.	8bbL	.	.	.	.	.	8ccL/	.	8cccL	.
.	.	.	.	.	.	.	.	.	16cc	.	.	.	.	.	.	.	.	.	.	.
8G	.	.	.	.	8aJ	.	.	.	16cc	.	8aaJ	.	.	.	.	.	8aJ	.	8aaJ	.
.	.	.	.	.	.	.	.	.	16cc	.	.	.	.	.	.	.	.	.	.	.
8A	6	.	4A	-tris	4f	-tris	4cc	-tris	16cc	.	4ff	.	.	.	.	.	4f	.	4ff	.
.	.	.	.	.	.	.	.	.	16cc	.	.	.	.	.	.	.	.	.	.	.
8AJ	.	.	.	.	.	.	.	.	16cc	.	.	.	.	.	.	.	.	.	.	.
.	.	.	.	.	.	.	.	.	16ccJJ	.	.	.	.	.	.	.	.	.	.	.
!	!	!	!	!	!	!	!	!	!	!	!	!	!	!	!	!	!	!	!LO:LB:g=original	!
=73	=73	=73	=73	=73	=73	=73	=73	=73	=73	=73	=73	=73	=73	=73	=73	=73	=73	=73	=73	=73
8B-XL	6	.	4B-X	in-	4g	Pa-	4g	in-	16eeLL	.	4gg	.	2.r	.	2.r	.	4g	???	4gg	.
.	.	.	.	.	.	.	.	.	16ee	.	.	.	.	.	.	.	.	.	.	.
8B-	-	.	.	.	.	.	.	.	16ee	.	.	.	.	.	.	.	.	.	.	.
.	.	.	.	.	.	.	.	.	16ee	.	.	.	.	.	.	.	.	.	.	.
8G	.	.	4G	-de	8b-XL	.	4b-X	-de	16ee	.	8bb-XL	.	.	.	.	.	8b-XL	.	8bb-XL	.
.	.	.	.	.	.	.	.	.	16ee	.	.	.	.	.	.	.	.	.	.	.
8G	.	.	.	.	8gJ	.	.	.	16ee	.	8ggJ	.	.	.	.	.	8gJ	.	8ggJ	.
.	.	.	.	.	.	.	.	.	16eeJJ	.	.	.	.	.	.	.	.	.	.	.
8c	.	.	4c	ven-	4e	-tris	4b-	ven-	16gLL 16b-X	.	4ee	.	.	.	.	.	4e	.	4ee	.
.	.	.	.	.	.	.	.	.	16g 16b-	.	.	.	.	.	.	.	.	.	.	.
8cJ	.	.	.	.	.	.	.	.	16g 16b-	.	.	.	.	.	.	.	.	.	.	.
.	.	.	.	.	.	.	.	.	16gJJ 16b-	.	.	.	.	.	.	.	.	.	.	.
*	*	*	*	*	*	*	*	*	*Xtremolo	*	*	*	*	*	*	*	*	*	*	*
!LO:PB:g=original	!	!	!	!	!LO:LB:g=original	!	!	!	!	!	!	!	!	!	!	!	!	!	!	!
=74	=74	=74	=74	=74	=74	=74	=74	=74	=74	=74	=74	=74	=74	=74	=74	=74	=74	=74	=74	=74
8FL	.	.	2F	-tu-	4f	in-	2a	-tu-	4f 4a	.	4ff	.	2.r	.	2.r	.	4f	.	4ff	.
8A	.	.	.	.	.	.	.	.	.	.	.	.	.	.	.	.	.	.	.	.
8c	.	.	.	.	4f	-de	.	.	4f 4a	.	4ff	.	.	.	.	.	4a	.	4ff	.
8A	.	.	.	.	.	.	.	.	.	.	.	.	.	.	.	.	.	.	.	.
8c	.	.	4F	-rus	4f	ven-	4a	-rus	4f 4a	.	4ff	.	.	.	.	.	4a	.	4ff	.
8AJ	.	.	.	.	.	.	.	.	.	.	.	.	.	.	.	.	.	.	.	.
!	!	!	!	!	!	!	!LO:LB:g=original	!	!	!	!	!	!	!	!	!	!LO:LB:g=original	!	!	!
=75	=75	=75	=75	=75	=75	=75	=75	=75	=75	=75	=75	=75	=75	=75	=75	=75	=75	=75	=75	=75
8FL	.	.	2F	eſt	8a	-tu-	2cc	eſt	8aL	.	2.a 2.ff	.	2.r	.	2.r	.	2.a	.	2.ff	.
8A	.	.	.	.	8a	-rus	.	.	8cc	.	.	.	.	.	.	.	.	.	.	.
8c	.	.	.	.	4a	eſt	.	.	8a	.	.	.	.	.	.	.	.	.	.	.
8AJ	.	.	.	.	.	.	.	.	8cc	.	.	.	.	.	.	.	.	.	.	.
4F	.	.	4r	.	4r	.	4r	.	8a	.	.	.	.	.	.	.	.	.	.	.
.	.	.	.	.	.	.	.	.	8ccJ	.	.	.	.	.	.	.	.	.	.	.
=76	=76	=76	=76	=76	=76	=76	=76	=76	=76	=76	=76	=76	=76	=76	=76	=76	=76	=76	=76	=76
8DL	#	p	4D	cum	4f#X	cum	4r	.	4dd	.	4d 4a 4ff#X\	.	2.r	.	2.r	.	2.r	.	2.r	.
8D	.	.	.	.	.	.	.	.	.	.	.	.	.	.	.	.	.	.	.	.
8D	.	.	8DL	cum	8f#L	cum	4r	.	8ddL	.	8ff#L	.	.	.	.	.	.	.	.	.
8D	.	.	8EJ	.	8g	.	.	.	8ee	.	8gg	.	.	.	.	.	.	.	.	.
8D	.	.	8F#XL	.	8a	.	4dd	cum	8ff#X	.	8aa	.	.	.	.	.	.	.	.	.
8DJ	.	.	8GJ	.	8bnJ	.	.	.	8ggJ	.	8bbnJ	.	.	.	.	.	.	.	.	.
!	!	!	!LO:LB:g=original	!	!	!	!	!	!	!	!	!	!	!	!	!	!	!	!	!
=77	=77	=77	=77	=77	=77	=77	=77	=77	=77	=77	=77	=77	=77	=77	=77	=77	=77	=77	=77	=77
(>8F#X'L	.	.	4.A	glo-	4.cc	Glo-	4.dd	glo-	2aa	.	2ccc	.	2.r	.	2.r	.	2.r	.	2.r	.
8d')(	.	.	.	.	.	.	.	.	.	.	.	.	.	.	.	.	.	.	.	.
8A)	.	.	.	.	.	.	.	.	.	.	.	.	.	.	.	.	.	.	.	.
(>8d'	.	.	8A	-ri-	8cc	-ri-	8dd	-ri-	.	.	.	.	.	.	.	.	.	.	.	.
8F#)(	.	.	4F#X	-a	4a	-a	4dd	-a	4ff#X	.	4aa	.	.	.	.	.	.	.	.	.
8dJ)	.	.	.	.	.	.	.	.	.	.	.	.	.	.	.	.	.	.	.	.
!	!	!	!	!	!LO:LB:g=original	!	!	!	!LO:LB:g=original	!	!	!	!	!	!	!	!	!	!	!
=78	=78	=78	=78	=78	=78	=78	=78	=78	=78	=78	=78	=78	=78	=78	=78	=78	=78	=78	=78	=78
8GL	.	.	4d	ju-	(>4dd	ju-	2dd	ju-	(>8bL	.	4ddd	.	2.r	.	2.r	.	2.r	.	2.r	.
8d	.	.	.	.	.	.	.	.	8dd)	.	.	.	.	.	.	.	.	.	.	.
8B	.	.	4B	.	4b)	.	.	.	(>8b	.	4bb	.	.	.	.	.	.	.	.	.
8d	.	.	.	.	.	.	.	.	8dd)	.	.	.	.	.	.	.	.	.	.	.
8G	.	.	4G	-di-	4g	-di-	4dd	-di-	(>8b	.	4gg	.	.	.	.	.	.	.	.	.
8dJ	.	.	.	.	.	.	.	.	8ddJ)	.	.	.	.	.	.	.	.	.	.	.
!	!	!	!	!	!	!	!	!	!	!	!LO:LB:g=original	!	!	!	!	!	!	!	!	!
=79	=79	=79	=79	=79	=79	=79	=79	=79	=79	=79	=79	=79	=79	=79	=79	=79	=79	=79	=79	=79
8F#XL	.	.	2A	-ca-	2cc	-ca-	2dd	-ca-	(>8ddL	.	2ccc	.	2.r	.	2.r	.	2.r	.	2.r	.
8d	.	.	.	.	.	.	.	.	8a)	.	.	.	.	.	.	.	.	.	.	.
8A	.	.	.	.	.	.	.	.	(>8dd	.	.	.	.	.	.	.	.	.	.	.
8d	.	.	.	.	.	.	.	.	8a)	.	.	.	.	.	.	.	.	.	.	.
8F#	.	.	4F#X	-re	4a	-re	4dd	-re	(>8dd	.	4aa	.	.	.	.	.	.	.	.	.
8dJ	.	.	.	.	.	.	.	.	8aJ)	.	.	.	.	.	.	.	.	.	.	.
!LO:LB:g=original	!	!	!	!	!	!	!	!	!	!	!	!	!	!	!	!	!	!	!	!
=80	=80	=80	=80	=80	=80	=80	=80	=80	=80	=80	=80	=80	=80	=80	=80	=80	=80	=80	=80	=80
8GL	.	.	4d	vi-	4dd	vi-	4dd	vi-	(>8bL	.	4ddd	.	2.r	.	2.r	.	2.r	.	2.r	.
8d	.	.	.	.	.	.	.	.	8dd)	.	.	.	.	.	.	.	.	.	.	.
8B	.	.	8cL	-vos	8ccL	-vos	4dd	-vos	(>8dd	.	8cccL	.	.	.	.	.	.	.	.	.
8d	.	.	8BJ	.	8bJ	.	.	.	8b)	.	8bb	.	.	.	.	.	.	.	.	.
8G	.	.	8AL	et	8aL	et	4dd	et	(>8dd	.	8aa	.	.	.	.	.	.	.	.	.
8dJ	.	.	8GJ	.	8gJ	.	.	.	8bJ)	.	8ggJ	.	.	.	.	.	.	.	.	.
=81	=81	=81	=81	=81	=81	=81	=81	=81	=81	=81	=81	=81	=81	=81	=81	=81	=81	=81	=81	=81
8F#XL	.	.	4.A	mor-	4.cc	mor-	4.dd	mor-	(<8aL\	.	2ccc	.	2.r	.	2.r	.	2.r	.	2.r	.
8d	.	.	.	.	.	.	.	.	8f#X\)	.	.	.	.	.	.	.	.	.	.	.
8A	.	.	.	.	.	.	.	.	(<8a\	.	.	.	.	.	.	.	.	.	.	.
8d	.	.	8A	-tu-	8cc	-tu-	8dd	-tu-	8f#\)	.	.	.	.	.	.	.	.	.	.	.
8F#	.	.	4F#X	-os	4a	-os	4dd	-os	(<8dd/	.	4aa	.	.	.	.	.	.	.	.	.
8dJ	.	.	.	.	.	.	.	.	8f#J\)	.	.	.	.	.	.	.	.	.	.	.
!	!	!	!LO:LB:g=original	!	!	!	!LO:PB:g=original	!	!	!	!	!	!	!	!	!	!	!	!	!
=82	=82	=82	=82	=82	=82	=82	=82	=82	=82	=82	=82	=82	=82	=82	=82	=82	=82	=82	=82	=82
!LO:TX:a:t=Tutti	!	!	!	!	!	!	!	!	!	!	!LO:TX:b:t=Tutti	!	!	!	!	!	!	!	!	!
4G	.	f	4G	cu-	4b	cu-	2dd	cu-	16bLL	f	4bb	.	2.r	.	2.r	.	4bn	.	4bbn	.
.	.	.	.	.	.	.	.	.	16b	.	.	.	.	.	.	.	.	.	.	.
.	.	.	.	.	.	.	.	.	16b	.	.	.	.	.	.	.	.	.	.	.
.	.	.	.	.	.	.	.	.	16bJJ	.	.	.	.	.	.	.	.	.	.	.
*	*	*	*	*	*	*	*	*	*tremolo	*	*	*	*	*	*	*	*	*	*	*
4A	.	.	4A	.	8ddL	.	.	.	16dLL 16b	.	16dddLL	.	.	.	.	.	8ddL	.	8dddL	.
.	.	.	.	.	.	.	.	.	16d 16b	.	16bb	.	.	.	.	.	.	.	.	.
.	.	.	.	.	8bJ	.	.	.	16d 16b	.	16ddd	.	.	.	.	.	8bJ	.	8bb	.
.	.	.	.	.	.	.	.	.	16dJJ 16b	.	16bbJJ	.	.	.	.	.	.	.	.	.
4B	6	.	4B	-jus	4g	-jus	4dd	-jus	16dLL 16dd	.	8ggL	.	.	.	.	.	8gL	.	8gg	.
.	.	.	.	.	.	.	.	.	16d 16dd	.	.	.	.	.	.	.	.	.	.	.
.	.	.	.	.	.	.	.	.	16d 16dd	.	8bbJ	.	.	.	.	.	8bJ	.	8bbJ	.
.	.	.	.	.	.	.	.	.	16dJJ 16dd	.	.	.	.	.	.	.	.	.	.	.
!	!	!	!	!	!LO:LB:g=original	!	!	!	!	!	!	!	!	!	!	!	!	!	!	!
=83	=83	=83	=83	=83	=83	=83	=83	=83	=83	=83	=83	=83	=83	=83	=83	=83	=83	=83	=83	=83
4c	.	.	2c	Re-	4a	Re-	(>4a	Re-	16eeLL	.	4aa	.	2.r	.	2.r	.	4a	.	4aa	.
.	.	.	.	.	.	.	.	.	16ee	.	.	.	.	.	.	.	.	.	.	.
.	.	.	.	.	.	.	.	.	16ee	.	.	.	.	.	.	.	.	.	.	.
.	.	.	.	.	.	.	.	.	16ee	.	.	.	.	.	.	.	.	.	.	.
4A	.	.	.	.	8ccL	.	4cc)	.	16ee	.	16cccLL	.	.	.	.	.	8ccL	.	8cccL	.
.	.	.	.	.	.	.	.	.	16ee	.	16bb	.	.	.	.	.	.	.	.	.
.	.	.	.	.	8aJ	.	.	.	16ee	.	16ccc	.	.	.	.	.	8aJ	.	8aa	.
.	.	.	.	.	.	.	.	.	16eeJJ	.	16aaJJ	.	.	.	.	.	.	.	.	.
4d	#	.	4d	-gni	4f#X	-gni	4dd	-gni	16dLL 16cc	.	8ff#XL	.	.	.	.	.	8f#XL	.	8ff#X	.
.	.	.	.	.	.	.	.	.	16d 16cc	.	.	.	.	.	.	.	.	.	.	.
.	.	.	.	.	.	.	.	.	16d 16cc	.	8aaJ	.	.	.	.	.	8aJ	.	8aaJ	.
.	.	.	.	.	.	.	.	.	16dJJ 16cc	.	.	.	.	.	.	.	.	.	.	.
*	*	*	*	*	*	*	*	*	*Xtremolo	*	*	*	*	*	*	*	*	*	*	*
!	!	!	!	!	!	!	!	!	!LO:LB:g=original	!	!	!	!	!	!	!	!	!	!	!
=84	=84	=84	=84	=84	=84	=84	=84	=84	=84	=84	=84	=84	=84	=84	=84	=84	=84	=84	=84	=84
4G	.	.	4G	non	4g	non	4b	non	(>16bLL	.	4.gg	.	8gL	.	8gL	.	2g	.	(>4gg	.
.	.	.	.	.	.	.	.	.	16dd	.	.	.	.	.	.	.	.	.	.	.
.	.	.	.	.	.	.	.	.	16b	.	.	.	8gJ	.	8gJ	.	.	.	.	.
.	.	.	.	.	.	.	.	.	16ddJJ)	.	.	.	.	.	.	.	.	.	.	.
4B	.	.	4B	e-	8gL	e-	4b	e-	(>16bLL	.	.	.	4g	.	4g	.	.	.	4gg)	.
.	.	.	.	.	.	.	.	.	16dd	.	.	.	.	.	.	.	.	.	.	.
.	.	.	.	.	8dJ	.	.	.	16b	.	8ddL	.	.	.	.	.	.	.	.	.
.	.	.	.	.	.	.	.	.	16ddJJ)	.	.	.	.	.	.	.	.	.	.	.
4d	#	.	4d	-rit	12bL	-rit	8ddL	-rit	(>16ccLL	.	8bb	.	4r	.	4r	.	8bL	.	8bbL	.
.	.	.	.	.	.	.	.	.	16dd	.	.	.	.	.	.	.	.	.	.	.
.	.	.	.	.	12g	.	.	.	.	.	.	.	.	.	.	.	.	.	.	.
.	.	.	.	.	.	.	8ccJ	.	16cc	.	8aaJ	.	.	.	.	.	8aJ	.	8aaJ	.
.	.	.	.	.	12aJ	.	.	.	.	.	.	.	.	.	.	.	.	.	.	.
.	.	.	.	.	.	.	.	.	16ddJJ)	.	.	.	.	.	.	.	.	.	.	.
=85	=85	=85	=85	=85	=85	=85	=85	=85	=85	=85	=85	=85	=85	=85	=85	=85	=85	=85	=85	=85
4G	.	.	8GL	fi-	8gL	fi-	8bL	fi-	(>16bLL	.	8ggL	.	8gL	.	8gL	.	4g	.	2gg	.
.	.	.	.	.	.	.	.	.	16dd	.	.	.	.	.	.	.	.	.	.	.
.	.	.	8F#XJ	.	8f#XJ	.	8aJ	.	16b	.	8ff#X	.	8gJ	.	8gJ	.	.	.	.	.
.	.	.	.	.	.	.	.	.	16ddJJ)	.	.	.	.	.	.	.	.	.	.	.
!	!	!	!	!	!	!	!	!	!LO:TX:a:t=Problem:powtórka pierwszej grupy zaznacznona //	!	!	!	!	!	!	!	!	!	!	!
4B	.	.	4G	-nis	4g	-nis	4b	-nis	(>16bLL	.	8gg	.	4g	.	4g	.	4b/	.	.	.
.	.	.	.	.	.	.	.	.	16dd	.	.	.	.	.	.	.	.	.	.	.
.	.	.	.	.	.	.	.	.	16b	.	8dd	.	.	.	.	.	.	.	.	.
.	.	.	.	.	.	.	.	.	16ddJJ)	.	.	.	.	.	.	.	.	.	.	.
4d	.	.	4r	.	4r	.	4r	.	(>16ccLL	.	8bb	.	4r	.	4r	.	8ddL	.	8bbL	.
.	.	.	.	.	.	.	.	.	16dd	.	.	.	.	.	.	.	.	.	.	.
.	.	.	.	.	.	.	.	.	16cc	.	8aaJ	.	.	.	.	.	8ccJ	.	8aaJ	.
.	.	.	.	.	.	.	.	.	16ddJJ)	.	.	.	.	.	.	.	.	.	.	.
!	!	!	!	!	!	!	!	!	!	!	!LO:LB:g=original	!	!LO:LB:g=original	!	!LO:LB:g=original	!	!	!	!LO:LB:g=original	!
=86	=86	=86	=86	=86	=86	=86	=86	=86	=86	=86	=86	=86	=86	=86	=86	=86	=86	=86	=86	=86
2G	.	.	2G	et	2g	et	2g	et	2d 2b	.	2gg	.	8gL	.	8gL	.	2b	.	2gg	.
.	.	.	.	.	.	.	.	.	.	.	.	.	8gJ	.	8gJ	.	.	.	.	.
.	.	.	.	.	.	.	.	.	.	.	.	.	4g	.	4g	.	.	.	.	.
8A`L	.	.	8AL	in	8aL	in	8aL	in	8aL\	.	8aaL	.	4r	.	4r	.	4r	.	4r	.
8B`J	.	.	8BJ	.	8bJ	.	8bJ	.	8bJ	.	8bbJ	.	.	.	.	.	.	.	.	.
=87	=87	=87	=87	=87	=87	=87	=87	=87	=87	=87	=87	=87	=87	=87	=87	=87	=87	=87	=87	=87
8c`L	.	.	8cL	spi-	8ccL	Spi-	8ccL	spi-	8ccL	.	8cccL	.	2.r	.	2.r	.	2.r	.	2.r	.
8B`	.	.	8B	.	8b	.	8b	.	8bJ	.	8bb	.	.	.	.	.	.	.	.	.
8A`	.	.	8A	.	8a	.	8a	.	8aL	.	8aa	.	.	.	.	.	.	.	.	.
8G`	.	.	8GJ	.	8gJ	.	8gJ	.	8g	.	8gg	.	.	.	.	.	.	.	.	.
!	!	!	!	!	!	!	!LO:LB:g=original	!	!	!	!	!	!	!	!	!	!	!	!	!
8F#X`	.	.	8F#X	-ri-	8f#X	-ri-	8ff#X	-ri-	8f#X	.	8ff#X	.	.	.	.	.	.	.	.	.
8E`J	.	.	8E	-tum	8e	-tum	8ee	-tum	8eJ	.	8eeJ	.	.	.	.	.	.	.	.	.
!LO:LB:g=original	!	!	!LO:LB:g=original	!	!LO:LB:g=original	!	!	!	!	!	!	!	!	!	!	!	!	!	!	!
=88	=88	=88	=88	=88	=88	=88	=88	=88	=88	=88	=88	=88	=88	=88	=88	=88	=88	=88	=88	=88
8D`L	.	.	8DL	san-	8ddL	san-	8ddL	san-	8dL	.	8ddL	.	2.r	.	2.r	.	2.r	.	2.r	.
8C#X`	.	.	8AJ	.	8cc#XJ	.	8cc#XJ	.	8c#X	.	8cc#X	.	.	.	.	.	.	.	.	.
8D`	.	.	4d	-ctum	4dd	-ctum	4dd	-ctum	8d	.	8dd	.	.	.	.	.	.	.	.	.
8E`	.	.	.	.	.	.	.	.	8e	.	8ee	.	.	.	.	.	.	.	.	.
8F#X`	.	.	4r	.	4r	.	4r	.	8f	.	8ff#X	.	.	.	.	.	.	.	.	.
8D`J	.	.	.	.	.	.	.	.	8dJ	.	8ddJ	.	.	.	.	.	.	.	.	.
!	!	!	!	!	!	!	!	!	!LO:LB:g=original	!	!	!	!	!	!	!	!	!	!	!
=89	=89	=89	=89	=89	=89	=89	=89	=89	=89	=89	=89	=89	=89	=89	=89	=89	=89	=89	=89	=89
8G`L	.	.	8GL	vi-	8gL	vi-	8gL/	vi-	8gL	.	8ggL	.	8gL	.	8gL	.	2.r	.	2.r	.
8F#X`	.	.	8F#X	.	8f#X	.	8f#X	.	8f#X	.	8ff#X	.	8gJ	.	8gJ	.	.	.	.	.
8G`	.	.	8G	.	8g	.	8g	.	8g	.	8gg	.	4g	.	4g	.	.	.	.	.
8A`	.	.	8AJ	.	8aJ	.	8aJ	.	8aJ	.	8aa	.	.	.	.	.	.	.	.	.
8B`	.	.	8BL	-vi-	8bL	-vi-	8bL	-vi-	8bL	.	8bb	.	4r	.	4r	.	.	.	.	.
8c`J	.	.	8cJ	.	8ccJ	.	8ccJ	.	8ccJ	.	8cccJ	.	.	.	.	.	.	.	.	.
=90	=90	=90	=90	=90	=90	=90	=90	=90	=90	=90	=90	=90	=90	=90	=90	=90	=90	=90	=90	=90
4d`	.	.	4d	-can-	4dd	-can-	4dd	-can-	4dd	.	4ddd	.	2.r	.	2.r	.	2.r	.	2.r	.
4B`	.	.	4B	-tem	4b	-tem	4b	-tem	4b	.	4bb	.	.	.	.	.	.	.	.	.
4G`	.	.	8G	qui	8g	qui	8g/	qui	4g	.	4gg	.	.	.	.	.	.	.	.	.
.	.	.	8G	lo-	8g	lo-	8g/	lo-	.	.	.	.	.	.	.	.	.	.	.	.
=91	=91	=91	=91	=91	=91	=91	=91	=91	=91	=91	=91	=91	=91	=91	=91	=91	=91	=91	=91	=91
4c`	.	.	4c	-cu-	4cc	-cu-	4cc	-cu-	4cc	.	4ccc	.	2.r	.	2.r	.	2.r	.	2.r	.
4A`	.	.	4A	-tus	4a	-tus	4a	-tus	4a\	.	4aa	.	.	.	.	.	.	.	.	.
4F#X`	.	.	4F#X	eſt	4f#X	eſt	4f#X	eſt	4f#X	.	4ff#X	.	.	.	.	.	.	.	.	.
!	!	!	!	!	!	!	!LO:LB:g=original	!	!	!	!	!	!	!	!	!	!LO:LB:g=original	!	!	!
=92	=92	=92	=92	=92	=92	=92	=92	=92	=92	=92	=92	=92	=92	=92	=92	=92	=92	=92	=92	=92
2G`	.	.	2G	per	2g	per	2b	per	8dL 8b	.	2gg	.	8GL	.	8gL	.	2b	f	2gg	f
.	.	.	.	.	.	.	.	.	8ddJ	.	.	.	8GJ	.	8gJ	.	.	.	.	.
.	.	.	.	.	.	.	.	.	8dL 8b	.	.	.	4G	.	4g	.	.	.	.	.
.	.	.	.	.	.	.	.	.	8ddJ	.	.	.	.	.	.	.	.	.	.	.
8A`L	.	.	8AL	Pro-	8aL	pro-	8ccL	Pro-	8dL 8cc/	.	8aaL	.	4r	.	4r	.	8ccL	.	8aaL	.
8F#X`J	.	.	8F#XJ	.	8f#XJ	.	8aJ	.	8ddJ	.	8ff#XJ	.	.	.	.	.	8aJ	.	8ff#XJ	.
!	!	!	!LO:LB:g=original	!	!LO:LB:g=original	!	!	!	!	!	!LO:PB:g=original	!	!	!	!	!	!	!	!	!
=93	=93	=93	=93	=93	=93	=93	=93	=93	=93	=93	=93	=93	=93	=93	=93	=93	=93	=93	=93	=93
4G	.	.	2G	-phe-	2g	-phe-	2b	-phe-	8dL 8b	.	2gg	.	8GL	.	8gL	.	2b	.	2gg	.
.	.	.	.	.	.	.	.	.	8ddJ	.	.	.	8GJ	.	8gJ	.	.	.	.	.
4B	.	.	.	.	.	.	.	.	8dL 8b	.	.	.	4G	.	4g	.	.	.	.	.
.	.	.	.	.	.	.	.	.	8ddJ	.	.	.	.	.	.	.	.	.	.	.
4d	#	.	8AL	.	8aL	.	8ccL	.	8dL 8cc/	.	8aaL	.	4r	.	4r	.	8ccL	.	8aaL	.
.	.	.	8F#XJ	.	8f#XJ	.	8aJ	.	8ddJ	.	8ff#XJ	.	.	.	.	.	8aJ	.	8ff#XJ	.
=94	=94	=94	=94	=94	=94	=94	=94	=94	=94	=94	=94	=94	=94	=94	=94	=94	=94	=94	=94	=94
8G`L	.	.	4G	-tas	4g	-tas	4b	-tas	(<8dL 8b	.	8ggL	.	2.g	.	2.g	.	4.b/	.	4.gg	.
8F#X`	.	.	.	.	.	.	.	.	8f#X)	.	8ff#X	.	.	.	.	.	.	.	.	.
8G`	.	.	4r	.	4r	.	4r	.	(<8g	.	8gg	.	.	.	.	.	.	.	.	.
8E`	.	.	.	.	.	.	.	.	8e)	.	8ee	.	.	.	.	.	8gL	.	8eeL	.
8Fn`	.	.	4r	.	4r	.	4r	.	(<8fn	.	8ffn	.	.	.	.	.	8a	.	8ffn	.
8D`J	.	.	.	.	.	.	.	.	8dJ)	.	8ddJ	.	.	.	.	.	8fnJ	.	8ddJ	.
!LO:LB:g=original	!	!	!	!	!	!	!	!	!LO:LB:g=original	!	!	!	!	!	!	!	!	!	!	!
=95	=95	=95	=95	=95	=95	=95	=95	=95	=95	=95	=95	=95	=95	=95	=95	=95	=95	=95	=95	=95
4C\	.	.	4c	et	4cc	et	4cc	et	2c	.	2cc	.	4c	.	2cc	.	2e	.	2cc	.
4E	.	.	4c	u-	4cc	u-	4cc	u-	.	.	.	.	4e	.	.	.	.	.	.	.
4G	.	.	8dL	-nam	8ddL	-nam	8ddL	-nam	8dL	.	8ddL	.	4g	.	8ddL\	.	8fL	.	8ddL	.
.	.	.	8BJ	.	8bJ	.	8bJ	.	8BJ	.	8bJ	.	.	.	8gJ/	.	8dJ	.	8bJ	.
=96	=96	=96	=96	=96	=96	=96	=96	=96	=96	=96	=96	=96	=96	=96	=96	=96	=96	=96	=96	=96
2.C	.	.	8cL	san-	8ccL	San-	8ccL	san-	8cL	.	8ccL	.	2c	.	2cc	.	2e	.	8ccL	.
.	.	.	8BJ	.	8bJ	.	8bJ	.	8B	.	8bJ	.	.	.	.	.	.	.	8b	.
.	.	.	4c	-ctam	4cc	-ctam	4cc	-ctam	8c	.	8ccL\	.	.	.	.	.	.	.	8cc	.
.	.	.	.	.	.	.	.	.	8G	.	8gJ/	.	.	.	.	.	.	.	8g	.
.	.	.	8EL	ca-	8eL	ca-	8eeL	ca-	8e	.	8eeL	.	8eL	.	8eeL\	.	4e	.	8ee	.
.	.	.	8GJ	.	8gJ	.	8ggJ	.	8gJ	.	8ggJ	.	8gJ	.	8ggJ	.	.	.	8ggJ	.
=97	=97	=97	=97	=97	=97	=97	=97	=97	=97	=97	=97	=97	=97	=97	=97	=97	=97	=97	=97	=97
8CL/	.	.	8c	-tho-	8cc	-tho-	8cc	-tho-	2e 2cc\	.	2cc	.	2e	.	2cc	.	2e	.	2cc	.
8c\	.	.	8c	-li-	8cc	-li-	8cc	-li-	.	.	.	.	.	.	.	.	.	.	.	.
8C/	.	.	4c	-cam	4cc	-cam	4cc	-cam	.	.	.	.	.	.	.	.	.	.	.	.
8c\	.	.	.	.	.	.	.	.	.	.	.	.	.	.	.	.	.	.	.	.
!	!	!	!	!	!	!	!LO:LB:g=original	!	!	!	!	!	!	!	!	!	!	!	!	!
8C/	.	.	8BL	et	8bL	et	8ddL	et	8bL	p	8ddL	.	4r	.	4r	.	4r	.	4r	.
8cJ\	.	.	8cJ	.	8ccJ	.	8eeJ	.	8ccJ	.	8eeJ	.	.	.	.	.	.	.	.	.
!	!	!	!LO:LB:g=original	!	!LO:LB:g=original	!	!	!	!	!	!	!	!	!	!LO:LB:g=original	!	!	!	!LO:LB:g=original	!
=98	=98	=98	=98	=98	=98	=98	=98	=98	=98	=98	=98	=98	=98	=98	=98	=98	=98	=98	=98	=98
!LO:TX:a:t=Solo	!	!	!	!	!	!	!	!	!	!	!	!	!	!	!	!	!	!	!	!
*tremolo	*	*	*	*	*	*	*	*	*	*	*	*	*	*	*	*	*	*	*	*
8cL	.	p	8G	a-	8dd	a-	8ff	a-	(>8ddL	.	8ffL	p	2.r	.	2.r	.	4r	.	4r	.
8c	.	.	8G	-po-	8cc	-pos-	8ee	-pos-	8cc)	.	8ee	.	.	.	.	.	.	.	.	.
8c	.	.	8G	-sto-	8dd	-to-	8ff	-to-	(>8dd	.	8ff	.	.	.	.	.	8ddL	p	8ffL	p
8c	.	.	8G	-li-	8cc	-li-	8ee	-li-	8ccJ)	.	8eeJ	.	.	.	.	.	8ccJ	.	8eeJ	.
8c	.	.	8G	-cam	8b	-cam	8dd	-cam	4b	.	4dd	.	.	.	.	.	4b	.	4dd	.
8cJ	.	.	8G	Ec-	8b	Ec-	8dd	Ec-	.	.	.	.	.	.	.	.	.	.	.	.
!	!	!	!	!	!	!	!	!	!	!	!	!	!	!	!	!	!LO:LB:g=original	!	!	!
=99	=99	=99	=99	=99	=99	=99	=99	=99	=99	=99	=99	=99	=99	=99	=99	=99	=99	=99	=99	=99
8cL	.	.	4c	-cle-	8eeL	-cle-	8ggL	-cle-	(>8eeL	.	8ggL	.	2.r	.	2.r	.	4r	.	4r	.
8c	.	.	.	.	8ddJ	.	8ffJ	.	8dd)	.	8ff	.	.	.	.	.	.	.	.	.
8c	.	.	4c	-ſi-	8eeL	-si-	8ggL	-si-	(>8ee	.	8gg	.	.	.	.	.	8eeL	.	8ggL	.
8c	.	.	.	.	8ddJ	.	8ffJ	.	8ddJ)	.	8ffJ	.	.	.	.	.	8ddJ	.	8ffJ	.
8c	.	.	4c	-am	4cc	-am	4ee	-am	4cc	.	4ee	.	.	.	.	.	4cc	.	4ee	.
8cJ	.	.	.	.	.	.	.	.	.	.	.	.	.	.	.	.	.	.	.	.
!	!	!	!	!	!	!	!	!	!	!	!LO:LB:g=original	!	!	!	!	!	!	!	!	!
=100	=100	=100	=100	=100	=100	=100	=100	=100	=100	=100	=100	=100	=100	=100	=100	=100	=100	=100	=100	=100
*Xtremolo	*	*	*	*	*	*	*	*	*	*	*	*	*	*	*	*	*	*	*	*
8CL/	6_ 4_	.	4c	con-	8aL	con-	4ff	con-	(>8ffL	.	8aaL	.	2.r	.	2.r	.	2.r	.	2.r	.
8c\	.	.	.	.	8gJ	.	.	.	8eeJ)	.	8gg	.	.	.	.	.	.	.	.	.
8C/	x	.	8c	-fi-	8a	-fi-	8ff	-fi-	4ff	.	8aa	.	.	.	.	.	.	.	.	.
8c\	.	.	8c	-te-	8cc	-te-	8ff	-te-	.	.	8ccc	.	.	.	.	.	.	.	.	.
8C/	7 5	.	4c	-or	8bL	-or	4dd	-or	(>8ddL	.	8bb	.	.	.	.	.	.	.	.	.
8cJ\	.	.	.	.	8ddJ	.	.	.	8ffJ)	.	8dddJ	.	.	.	.	.	.	.	.	.
!	!	!	!	!	!LO:LB:g=original	!	!LO:LB:g=original	!	!	!	!	!	!	!	!	!	!	!	!	!
=101	=101	=101	=101	=101	=101	=101	=101	=101	=101	=101	=101	=101	=101	=101	=101	=101	=101	=101	=101	=101
*tremolo	*	*	*	*	*	*	*	*	*	*	*	*	*	*	*	*	*	*	*	*
8cL	.	.	4c	u-	4cc	u-	4ee	u-	8cc 8ee	.	2ccc	.	2.r	.	2.r	.	2.r	.	2.r	.
8c	.	.	.	.	.	.	.	.	4cc 4ee	.	.	.	.	.	.	.	.	.	.	.
8c	.	.	4C	-num	4cc	-num	4ee	-num	.	.	.	.	.	.	.	.	.	.	.	.
8c	.	.	.	.	.	.	.	.	8eeL	.	.	.	.	.	.	.	.	.	.	.
8c	.	.	4c	Bab-	4g	Bab-	4ee	Bab-	8cc	.	8eeL	.	.	.	.	.	.	.	.	.
8cJ	.	.	.	.	.	.	.	.	8eeJ	.	8ggJ	.	.	.	.	.	.	.	.	.
!	!	!	!LO:LB:g=original	!	!	!	!	!	!LO:LB:g=original	!	!	!	!	!	!	!	!	!	!	!
=102	=102	=102	=102	=102	=102	=102	=102	=102	=102	=102	=102	=102	=102	=102	=102	=102	=102	=102	=102	=102
8cL	.	.	4c	-tiſ-	4g	-tiſ-	8ffL	-tiſ-	(>8ddL	.	8ffL	.	2.r	.	2.r	.	4r	.	4r	.
8c	.	.	.	.	.	.	8eeJ	.	8cc)	.	8ee	.	.	.	.	.	.	.	.	.
8c	.	.	4C	-ma	4g	-ma	8ffL	-ma	(>8dd	.	8ff	.	.	.	.	.	8ddL	.	8ffL	.
8c	.	.	.	.	.	.	8eeJ	.	8ccJ)	.	8eeJ	.	.	.	.	.	8ccJ	.	8eeJ	.
8c	.	.	8c	in	8g	in	8dd	in	4b	.	4dd	.	.	.	.	.	4b	.	4dd	.
8cJ	.	.	8c	re-	8g	re-	8dd	re-	.	.	.	.	.	.	.	.	.	.	.	.
=103	=103	=103	=103	=103	=103	=103	=103	=103	=103	=103	=103	=103	=103	=103	=103	=103	=103	=103	=103	=103
*Xtremolo	*	*	*	*	*	*	*	*	*	*	*	*	*	*	*	*	*	*	*	*
8CL/	.	.	8c	-miſ-	8ee	-miſsi-	8gg	-miſ-	(>8eeL	.	8ggL	.	2.r	.	2.r	.	4r	.	4r	.
8c\	.	.	8c	-si-	8dd	.	8ff	-si-	8dd)	.	8ff	.	.	.	.	.	.	.	.	.
8C/	.	.	8c	-o-	8ee	-o-	8gg	-o-	(>8ee	.	8gg	.	.	.	.	.	8eeL	.	8ggL	.
8c\	.	.	8c	-nem	8dd	-nem	8ff	-nem	8ddJ)	.	8ffJ	.	.	.	.	.	8ddJ	.	8ffJ	.
8C/	.	.	8c	pec-	8cc	pec-	8ee	pec-	4dd	.	4ee	.	.	.	.	.	4cc	.	4ee	.
8cJ\	.	.	8c	-ca-	8cc	-ca-	8ee	-ca-	.	.	.	.	.	.	.	.	.	.	.	.
!LO:LB:g=original	!	!	!	!	!	!	!	!	!	!	!	!	!	!	!	!	!	!	!	!
=104	=104	=104	=104	=104	=104	=104	=104	=104	=104	=104	=104	=104	=104	=104	=104	=104	=104	=104	=104	=104
!	!	!	!	!	!	!	!	!	!LO:TX:a:t=problem:niewyraźna artykulacja	!	!	!	!	!	!	!	!	!	!	!
*tremolo	*	*	*	*	*	*	*	*	*	*	*	*	*	*	*	*	*	*	*	*
8GL	.	.	2G	-to-	2.g	-to-	8ffL	-to-	(<8aL	.	8ffL	.	2.r	.	2.r	.	2.r	.	2.r	.
8G	.	.	.	.	.	.	8ee	.	8g)	.	8ee	.	.	.	.	.	.	.	.	.
8G	.	.	.	.	.	.	8dd	.	(<8f	.	8dd	.	.	.	.	.	.	.	.	.
8G	.	.	.	.	.	.	8cc	.	8e)	.	8cc	.	.	.	.	.	.	.	.	.
8G	.	.	4GG	.	.	.	8dd	.	(<8f	.	8dd	.	.	.	.	.	.	.	.	.
8GJ	.	.	.	.	.	.	8eeJ	.	8gJ)	.	8eeJ	.	.	.	.	.	.	.	.	.
!	!	!	!	!	!LO:LB:g=original	!	!LO:LB:g=original	!	!	!	!	!	!LO:PB:g=original	!	!	!	!	!	!	!
=105	=105	=105	=105	=105	=105	=105	=105	=105	=105	=105	=105	=105	=105	=105	=105	=105	=105	=105	=105	=105
8CL	.	.	4C	-rum	4g	-rum	4cc	-rum	2e	.	2cc	f	4r	.	4r	.	2r	.	2r	.
8C	.	.	.	.	.	.	.	.	.	.	.	.	.	.	.	.	.	.	.	.
8C	.	.	4c	et	4g	et	4cc	et	.	.	.	.	4r	.	4r	.	.	.	.	.
8C	.	.	.	.	.	.	.	.	.	.	.	.	.	.	.	.	.	.	.	.
8C	.	.	4c	ex-	4g	ex-	(>8ddL	ex-	8bL	f	8ddL	.	8gL/	.	8ddL	.	8bL	f	8ddL	f
8CJ	.	.	.	.	.	.	8eeJ)	.	8ccJ	.	8eeJ	.	8ccJ\	.	8eeJ	.	8ccJ	.	8eeJ	.
!	!	!	!LO:LB:g=original	!	!	!	!	!	!	!	!	!	!	!	!	!	!	!	!	!
=106	=106	=106	=106	=106	=106	=106	=106	=106	=106	=106	=106	=106	=106	=106	=106	=106	=106	=106	=106	=106
!LO:TX:a:t=Tutti	!	!	!	!	!	!	!	!	!	!	!	!	!	!	!	!	!	!	!	!
8CL	.	f	8c	-spec-	8dd	-spec-	8ff	-spec-	(>8ddL	.	8ffL	.	8ddL	.	8ffL	.	8dd`	.	8ff`	.
8C	.	.	8C	-to	8cc	-to	8ee	-to	8cc)	.	8ee	.	8cc	.	8ee	.	8r	.	8r	.
8C	.	.	8c	res-	8dd	res-	8ff	res-	(>8dd	.	8ff	.	8dd	.	8ff	.	(>8ddL	.	(>8ffL	.
8C	.	.	8c	-sur-	8cc	-sur-	8ee	-sur-	8ccJ)	.	8eeJ	.	8ccJ	.	8eeJ	.	8ccJ)	.	8eeJ)	.
8C	.	.	8c	-re-	8g	-re-	8dd	-re-	4b	.	4dd	.	4g	.	4dd	.	4b	.	4dd	.
8CJ	.	.	8c	-cti-	8g	-cti-	8dd	-cti-	.	.	.	.	.	.	.	.	.	.	.	.
!	!	!	!	!	!	!	!	!	!	!	!LO:LB:g=original	!	!	!	!	!	!LO:LB:g=original	!	!LO:LB:g=original	!
=107	=107	=107	=107	=107	=107	=107	=107	=107	=107	=107	=107	=107	=107	=107	=107	=107	=107	=107	=107	=107
8CL	.	.	2c	-o-	8eeL	-o-	8ggL	-o-	(>8eeL	.	8ggL	.	8eeL	.	8ggL	.	8ee	.	8gg	.
8C	.	.	.	.	8dd	.	8ff	.	8dd)	.	8ff	.	8dd	.	8ff	.	8r	.	8r	.
8C	.	.	.	.	8ee	.	8gg	.	(>8ee	.	8gg	.	8ee	.	8gg	.	8eeL	.	8ggL	.
8C	.	.	.	.	8ddJ	.	8ffJ	.	8ddJ)	.	8ffJ	.	8ddJ	.	8ffJ	.	8ddJ	.	8ffJ	.
8C	.	.	4C	-nem	4cc	-nem	4ee	-nem	4cc	.	4ee	.	4cc	.	4ee	.	4cc	.	4ee	.
8CJ	.	.	.	.	.	.	.	.	.	.	.	.	.	.	.	.	.	.	.	.
=108	=108	=108	=108	=108	=108	=108	=108	=108	=108	=108	=108	=108	=108	=108	=108	=108	=108	=108	=108	=108
8CL	6 4	.	2c	mor-	8aL	mor-	2ff	mor-	(>8ffL	.	8aaL	.	2.r	.	2.r	.	2.r	.	2.r	.
8C	.	.	.	.	8g	.	.	.	8eeJ)	.	8gg	.	.	.	.	.	.	.	.	.
8C	7 5	.	.	.	8a	.	.	.	4ff	.	8aa	.	.	.	.	.	.	.	.	.
8C	.	.	.	.	8ccJ	.	.	.	.	.	8ccc	.	.	.	.	.	.	.	.	.
8C	.	.	4c	-tu-	8bL	-tu-	4gg	-tu-	8ddL	.	8bb	.	.	.	.	.	.	.	.	.
8CJ	.	.	.	.	8ddJ	.	.	.	8ffJ	.	8dddJ	.	.	.	.	.	.	.	.	.
!	!	!	!	!	!LO:LB:g=original	!	!	!	!LO:LB:g=original	!	!	!	!	!	!	!	!	!	!	!
=109	=109	=109	=109	=109	=109	=109	=109	=109	=109	=109	=109	=109	=109	=109	=109	=109	=109	=109	=109	=109
*	*	*	*	*	*	*	*	*	*tremolo	*	*	*	*	*	*	*	*	*	*	*
8CL	.	.	4c	-o-	4cc	-o-	4ee	-o-	16ccLL 16ee	.	2ccc	.	4r	.	4r	.	2.r	.	2.r	.
.	.	.	.	.	.	.	.	.	16cc 16ee	.	.	.	.	.	.	.	.	.	.	.
8C	.	.	.	.	.	.	.	.	16cc 16ee	.	.	.	.	.	.	.	.	.	.	.
.	.	.	.	.	.	.	.	.	16cc 16ee	.	.	.	.	.	.	.	.	.	.	.
8C	.	.	4C	-rum	4cc	-rum	4ee	-rum	16cc 16ee	.	.	.	4r	.	4r	.	.	.	.	.
.	.	.	.	.	.	.	.	.	16cc 16ee	.	.	.	.	.	.	.	.	.	.	.
8C	.	.	.	.	.	.	.	.	16cc 16ee	.	.	.	.	.	.	.	.	.	.	.
.	.	.	.	.	.	.	.	.	16cc 16ee	.	.	.	.	.	.	.	.	.	.	.
8C	.	.	4c	et	4cc	et	4ee	et	16cc 16ee	.	8ggL	.	8ccL	.	4ee	.	.	.	.	.
.	.	.	.	.	.	.	.	.	16cc 16ee	.	.	.	.	.	.	.	.	.	.	.
8CJ	.	.	.	.	.	.	.	.	16cc 16ee	.	8eeJ	.	8eeJ	.	.	.	.	.	.	.
.	.	.	.	.	.	.	.	.	16ccJJ 16ee	.	.	.	.	.	.	.	.	.	.	.
*	*	*	*	*	*	*	*	*	*Xtremolo	*	*	*	*	*	*	*	*	*	*	*
!	!	!	!LO:PB:g=original	!	!	!	!LO:LB:g=original	!	!	!	!	!	!	!	!	!	!	!	!	!
=110	=110	=110	=110	=110	=110	=110	=110	=110	=110	=110	=110	=110	=110	=110	=110	=110	=110	=110	=110	=110
8GL	7	.	4G	vi-	8ddL	vi-	8ffL	vi-	(>8ddL	ff	8ffL	ff	8ddL	.	8ffL	.	4g	.	8ffL	.
8G	.	.	.	.	8ccJ	.	8ee	.	8cc)	.	8ee	.	8cc	.	8ee	.	.	.	8ee	.
8G	5	.	4G	-tam	8ddL	.	8ff	.	(>8dd	.	8ff	.	8dd	.	8ff	.	8ddL	.	8ff	.
8G	.	.	.	.	8ccJ	.	8eeJ	.	8ccJ)	.	8eeJ	.	8ccJ	.	8eeJ	.	8ccJ	.	8eeJ	.
8G	.	.	4G	ven-	8b	-tam	8dd	-tam	4b	.	4dd	.	4g	.	4dd	.	4b	.	4dd	.
8GJ	.	.	.	.	8b	ven-	8dd	ven-	.	.	.	.	.	.	.	.	.	.	.	.
=111	=111	=111	=111	=111	=111	=111	=111	=111	=111	=111	=111	=111	=111	=111	=111	=111	=111	=111	=111	=111
8cL	.	.	2c	-tu-	8eeL	-tu-	8ggL	-tu-	(>8eeL	.	8ggL	.	8eeL	.	8ggL	.	4g	.	8ggL	.
8c	.	.	.	.	8dd	.	8ff	.	8dd)	.	8ff	.	8dd	.	8ff	.	.	.	8ff	.
8c	.	.	.	.	8ee	.	8gg	.	(>8ee	.	8gg	.	8ee	.	8gg	.	4g	.	8gg	.
8c	.	.	.	.	8ddJ	.	8ffJ	.	8ddJ)	.	8ffJ	.	8ddJ	.	8ffJ	.	.	.	8ffJ	.
8c	.	.	4c	-ri	4cc	-ri	4ee	-ri	4cc	.	4ee	.	4cc	.	4ee	.	4g	.	4ee	.
8cJ	.	.	.	.	.	.	.	.	.	.	.	.	.	.	.	.	.	.	.	.
!	!	!	!	!	!	!	!	!	!	!	!	!	!LO:LB:g=original	!	!LO:LB:g=original	!	!	!	!	!
=112	=112	=112	=112	=112	=112	=112	=112	=112	=112	=112	=112	=112	=112	=112	=112	=112	=112	=112	=112	=112
8GL	.	.	4G	sae-	8aL	sae-	(>8ffL	sae-	(<8aL	.	8ffL	.	4r	.	4r	.	2.r	.	2.r	.
8G	.	.	.	.	8gJ	.	8eeJ)	.	8g)	.	8ee	.	.	.	.	.	.	.	.	.
8G	.	.	4G	-cu-	8fL	-cu-	(>8ddL	-cu-	(<8f	.	8dd	.	8gL	.	8ddL	.	.	.	.	.
8G	.	.	.	.	8eJ	.	8ccJ)	.	8e)	.	8cc	.	8eJ	.	8cc	.	.	.	.	.
8G	.	.	4G	-li	8fL	-li	(>8ddL	-li	(<8f	.	8dd	.	4g	.	8dd	.	.	.	.	.
8GJ	.	.	.	.	8gJ	.	8eeJ)	.	8gJ)	.	8eeJ	.	.	.	8eeJ	.	.	.	.	.
!	!	!	!	!	!LO:LB:g=original	!	!	!	!	!	!	!	!	!	!	!	!	!	!	!
=113	=113	=113	=113	=113	=113	=113	=113	=113	=113	=113	=113	=113	=113	=113	=113	=113	=113	=113	=113	=113
8CL	.	.	4c	A-	4e	a-	4cc	A-	(<8GL 8e	.	2cc	.	2.e	.	2.cc	.	4e	.	2cc	.
8C	.	.	.	.	.	.	.	.	8g)	.	.	.	.	.	.	.	.	.	.	.
8C	.	.	4C	-men	4e	-men	4cc	-men	(<8G 8e	.	.	.	.	.	.	.	4g	.	.	.
8C	.	.	.	.	.	.	.	.	8g)	.	.	.	.	.	.	.	.	.	.	.
8C	.	.	4r	.	4r	.	4r	.	(<8G 8e	.	8eeL	.	.	.	.	.	4cc	.	8eeL	.
8CJ	.	.	.	.	.	.	.	.	8gJ)	.	8ggJ	.	.	.	.	.	.	.	8ggJ	.
!	!	!	!	!	!	!	!LO:LB:g=original	!	!	!	!LO:LB:g=original	!	!	!	!	!	!	!	!	!
=114	=114	=114	=114	=114	=114	=114	=114	=114	=114	=114	=114	=114	=114	=114	=114	=114	=114	=114	=114	=114
*Xtremolo	*	*	*	*	*	*	*	*	*tremolo	*	*	*	*	*	*	*	*	*	*	*
8CL	.	ff	4C	a-	2g	A-	2ee	A-	16gLL 16ee/	.	4ccc	.	4e	.	4cc	.	4ee	.	4ccc	.
.	.	.	.	.	.	.	.	.	16g 16ee	.	.	.	.	.	.	.	.	.	.	.
8E	.	.	.	.	.	.	.	.	16g 16ee	.	.	.	.	.	.	.	.	.	.	.
.	.	.	.	.	.	.	.	.	16g 16ee	.	.	.	.	.	.	.	.	.	.	.
8C	.	.	4E	.	.	.	.	.	16g 16ee	.	4ccc	.	4e	.	4cc	.	4r	.	4r	.
.	.	.	.	.	.	.	.	.	16g 16ee	.	.	.	.	.	.	.	.	.	.	.
8EJ	.	.	.	.	.	.	.	.	16g 16ee	.	.	.	.	.	.	.	.	.	.	.
.	.	.	.	.	.	.	.	.	16gJJ 16ee	.	.	.	.	.	.	.	.	.	.	.
4G	.	.	4G	-men	4dd	-men	4ff	-men	16gLL 16ff/	.	8bbL	.	4r	.	4r	.	4ff	.	8bbL	.
.	.	.	.	.	.	.	.	.	16g 16ff	.	.	.	.	.	.	.	.	.	.	.
.	.	.	.	.	.	.	.	.	16g 16ff	.	8ggJ	.	.	.	.	.	.	.	8ggJ	.
.	.	.	.	.	.	.	.	.	16gJJ 16ff	.	.	.	.	.	.	.	.	.	.	.
!	!	!	!LO:LB:g=original	!	!	!	!	!	!	!	!	!	!	!	!	!	!	!	!	!
=115	=115	=115	=115	=115	=115	=115	=115	=115	=115	=115	=115	=115	=115	=115	=115	=115	=115	=115	=115	=115
8CL	.	.	4C	a-	2g	A-	2ee	A-	16ccLL 16ee	.	4ccc	.	4e	.	4cc	.	4ee	.	4ccc	.
.	.	.	.	.	.	.	.	.	16cc 16ee	.	.	.	.	.	.	.	.	.	.	.
8E	.	.	.	.	.	.	.	.	16cc 16ee	.	.	.	.	.	.	.	.	.	.	.
.	.	.	.	.	.	.	.	.	16cc 16ee	.	.	.	.	.	.	.	.	.	.	.
8C	.	.	4E	.	.	.	.	.	16cc 16ee	.	4ccc	.	4e	.	4cc	.	4r	.	4r	.
.	.	.	.	.	.	.	.	.	16cc 16ee	.	.	.	.	.	.	.	.	.	.	.
8EJ	.	.	.	.	.	.	.	.	16cc 16ee	.	.	.	.	.	.	.	.	.	.	.
.	.	.	.	.	.	.	.	.	16ccJJ 16ee	.	.	.	.	.	.	.	.	.	.	.
4G	.	.	4G	-men	4dd	-men	4ff	-men	16ddLL 16ff	.	8bbL	.	4r	.	4r	.	4ff	.	8bbL	.
.	.	.	.	.	.	.	.	.	16dd 16ff	.	.	.	.	.	.	.	.	.	.	.
.	.	.	.	.	.	.	.	.	16dd 16ff	.	8ggJ	.	.	.	.	.	.	.	8ggJ	.
.	.	.	.	.	.	.	.	.	16ddJJ 16ff	.	.	.	.	.	.	.	.	.	.	.
!LO:LB:g=original	!	!	!	!	!	!	!	!	!LO:LB:g=original	!	!	!	!	!	!	!	!LO:LB:g=original	!	!LO:LB:g=original	!
*Xtremolo	*	*	*	*	*	*	*	*	*Xtremolo	*	*	*	*	*	*	*	*	*	*	*
=116	=116	=116	=116	=116	=116	=116	=116	=116	=116	=116	=116	=116	=116	=116	=116	=116	=116	=116	=116	=116
8CL	.	.	4C	a-	4g	a-	4ee	A-	(>8eeL	.	4ccc	.	4e	.	4cc	.	4ee	.	4ccc	.
8E	.	.	.	.	.	.	.	.	8gg)	.	.	.	.	.	.	.	.	.	.	.
8G	.	.	4E	-men	4g	-men	2ee	.	(>8ee	.	4ccc	.	4c	.	4ee	.	4ee	.	4ccc	.
8c	.	.	.	.	.	.	.	.	8gg)	.	.	.	.	.	.	.	.	.	.	.
8G	.	.	4G	A-	4g	A-	.	.	(>8ee	.	4ccc	.	4e	.	4gg	.	4ee	.	4ccc	.
8EJ	.	.	.	.	.	.	.	.	8ggJ)	.	.	.	.	.	.	.	.	.	.	.
=117	=117	=117	=117	=117	=117	=117	=117	=117	=117	=117	=117	=117	=117	=117	=117	=117	=117	=117	=117	=117
2.C	.	.	2c	-men	2g	-men	2ee	-men	2g 2ee	.	2.ccc	.	2.e	.	2.cc	.	2.ee	.	2.ccc	.
.	.	.	4r	.	4r	.	4r	.	4r	.	.	.	.	.	.	.	.	.	.	.
==	==	==	==	==	==	==	==	==	==	==	==	==	==	==	==	==	==	==	==	==
*-	*-	*-	*-	*-	*-	*-	*-	*-	*-	*-	*-	*-	*-	*-	*-	*-	*-	*-	*-	*-
!!!system-decoration: s1,s2,s3,s4,s5,s6,s7,s8,s9,s10
!!!RDF**kern: > = above
!!!RDF**kern: < = below
!!!ENC: Anna Matuszewska
!!!END: 2020-03-28
